projects/Week3-Starter/res/luts/custom.cube
# Created by: G'MIC (https://gmic.eu)
TITLE "custom"
# LUT size
LUT_3D_SIZE 32
# Data domain
DOMAIN_MIN 0.0 0.0 0.0
DOMAIN_MAX 1.0 1.0 1.0
# LUT data points
0.11955823004245758 0.036153323948383331 0.12074197083711624
0.1943865567445755 0.054504219442605972 0.11860115081071854
0.23782715201377869 0.060688037425279617 0.11565599590539932
0.27098307013511658 0.079349786043167114 0.10615085810422897
0.29693001508712769 0.11724903434514999 0.10632900148630142
0.32656463980674744 0.14970514178276062 0.13270168006420135
0.34640964865684509 0.20780111849308014 0.1382000595331192
0.37261331081390381 0.13123124837875366 0.1548706442117691
0.40002903342247009 0.049794886261224747 0.15139132738113403
0.42165932059288025 0.10896012932062149 0.14733131229877472
0.43630850315093994 0.26034331321716309 0.15288466215133667
0.45330575108528137 0.3336140513420105 0.15061080455780029
0.47012147307395935 0.38918280601501465 0.13795952498912811
0.49109309911727905 0.43822145462036133 0.13110387325286865
0.51126253604888916 0.44723519682884216 0.14125430583953857
0.53034371137619019 0.42880642414093018 0.15457615256309509
0.55020385980606079 0.40026414394378662 0.16524887084960938
0.57249289751052856 0.38381597399711609 0.178507000207901
0.59550797939300537 0.38207495212554932 0.19608339667320251
0.61551779508590698 0.37855985760688782 0.20759180188179016
0.63117200136184692 0.37879514694213867 0.21119529008865356
0.64627736806869507 0.37561213970184326 0.2099556177854538
0.66275215148925781 0.36746436357498169 0.2056262195110321
0.68125802278518677 0.35510215163230896 0.19916434586048126
0.70198565721511841 0.33961403369903564 0.1912773996591568
0.72492754459381104 0.32226943969726562 0.18259797990322113
0.7500109076499939 0.30433064699172974 0.17369550466537476
0.77614367008209229 0.28875654935836792 0.16629718244075775
0.79918909072875977 0.27976703643798828 0.16273574531078339
0.82139945030212402 0.26929512619972229 0.15773247182369232
0.84456223249435425 0.25773718953132629 0.15161691606044769
0.86911064386367798 0.24558800458908081 0.14483223855495453
0.11330760270357132 0.29178193211555481 0.10485615581274033
0.19780629873275757 0.28243416547775269 0.12862962484359741
0.24015900492668152 0.2740655243396759 0.13793174922466278
0.27298185229301453 0.28974157571792603 0.12249516695737839
0.30445915460586548 0.28651249408721924 0.11993695795536041
0.33053615689277649 0.30506888031959534 0.13269737362861633
0.35196378827095032 0.30473923683166504 0.13421377539634705
0.37367987632751465 0.29221326112747192 0.14100174605846405
0.39577388763427734 0.26574775576591492 0.13336904346942902
0.42073974013328552 0.29811558127403259 0.1182989627122879
0.44072192907333374 0.32189637422561646 0.14825652539730072
0.4562019407749176 0.37582829594612122 0.14301753044128418
0.47496369481086731 0.42545467615127563 0.1356256902217865
0.49782469868659973 0.48295637965202332 0.13544033467769623
0.51616531610488892 0.48670861124992371 0.14725705981254578
0.53343492746353149 0.46314266324043274 0.16284272074699402
0.55219191312789917 0.43238162994384766 0.17435137927532196
0.57338738441467285 0.40676862001419067 0.18306727707386017
0.59619510173797607 0.40394115447998047 0.19998455047607422
0.6159212589263916 0.40064811706542969 0.21136525273323059
0.63114762306213379 0.40045717358589172 0.21441593766212463
0.64598572254180908 0.39634394645690918 0.21266390383243561
0.66234886646270752 0.38768696784973145 0.20806208252906799
0.68089699745178223 0.37524762749671936 0.20151783525943756
0.70180702209472656 0.36007261276245117 0.19369497895240784
0.72503715753555298 0.34372571110725403 0.18533924221992493
0.74981003999710083 0.32887479662895203 0.17819005250930786
0.77256524562835693 0.32143250107765198 0.17599840462207794
0.79405176639556885 0.31225219368934631 0.17217345535755157
0.81578850746154785 0.3009360134601593 0.16633696854114532
0.83871942758560181 0.2886326014995575 0.1593969315290451
0.86322212219238281 0.27582186460494995 0.15181621909141541
0.10999615490436554 0.47710376977920532 0.11139918863773346
0.19276240468025208 0.47416046261787415 0.11070290952920914
0.24179251492023468 0.47981277108192444 0.11644750088453293
0.27327406406402588 0.47252827882766724 0.12323074042797089
0.30270636081695557 0.46803370118141174 0.12641160190105438
0.33313184976577759 0.46911635994911194 0.13716213405132294
0.35558328032493591 0.45853465795516968 0.14233046770095825
0.37831208109855652 0.46951335668563843 0.124881811439991
0.39877596497535706 0.45346257090568542 0.11686189472675323
0.42291238903999329 0.46148428320884705 0.11376143246889114
0.44219836592674255 0.47354400157928467 0.13321575522422791
0.45767530798912048 0.45455127954483032 0.13080497086048126
0.482707679271698 0.47964224219322205 0.1318126916885376
0.50546729564666748 0.52725094556808472 0.13512836396694183
0.52052277326583862 0.52202534675598145 0.15277251601219177
0.53617560863494873 0.49750512838363647 0.17332994937896729
0.55417913198471069 0.46618661284446716 0.18135040998458862
0.57433152198791504 0.43675589561462402 0.18198110163211823
0.59674763679504395 0.43395465612411499 0.19099482893943787
0.61636841297149658 0.43127748370170593 0.2008846253156662
0.6314777135848999 0.43056437373161316 0.2039174884557724
0.64632284641265869 0.42538854479789734 0.20316074788570404
0.66284996271133423 0.41507655382156372 0.2004452645778656
0.68172228336334229 0.4008479118347168 0.19648522138595581
0.70307594537734985 0.38460659980773926 0.19225166738033295
0.72642695903778076 0.36842736601829529 0.18855257332324982
0.74864089488983154 0.35981699824333191 0.18804766237735748
0.76932317018508911 0.35258007049560547 0.18633216619491577
0.78973078727722168 0.34223702549934387 0.18142479658126831
0.8109358549118042 0.3301863968372345 0.17465761303901672
0.83365482091903687 0.31726658344268799 0.16685734689235687
0.85814797878265381 0.30392417311668396 0.15846456587314606
0.10814804583787918 0.56886428594589233 0.11017636209726334
0.19271852076053619 0.56450474262237549 0.10679014027118683
0.235271155834198 0.56119376420974731 0.12060559540987015
0.27044764161109924 0.57030642032623291 0.13339641690254211
0.29464095830917358 0.54688173532485962 0.14490091800689697
0.33166861534118652 0.55460822582244873 0.14728385210037231
0.35772854089736938 0.56544822454452515 0.14871188998222351
0.37690818309783936 0.55747896432876587 0.14500117301940918
0.39920890331268311 0.55596870183944702 0.1389176994562149
0.42298012971878052 0.55784618854522705 0.13262021541595459
0.44298630952835083 0.55436360836029053 0.13225767016410828
0.45868927240371704 0.52444559335708618 0.13163581490516663
0.48553326725959778 0.54166370630264282 0.13212540745735168
0.51035040616989136 0.56312435865402222 0.13973191380500793
0.52319544553756714 0.55462795495986938 0.16696575284004211
0.5386698842048645 0.53180772066116333 0.17945070564746857
0.5562019944190979 0.50051188468933105 0.1806158721446991
0.57633370161056519 0.48273313045501709 0.17531311511993408
0.59875190258026123 0.48919025063514709 0.18097953498363495
0.6176183819770813 0.48776969313621521 0.19022807478904724
0.63156759738922119 0.48514631390571594 0.19294443726539612
0.64576160907745361 0.47492003440856934 0.19359709322452545
0.66227489709854126 0.45786070823669434 0.19423225522041321
0.68164759874343872 0.43709737062454224 0.19451691210269928
0.70385068655014038 0.41432136297225952 0.19474352896213531
0.72720915079116821 0.39578112959861755 0.19633607566356659
0.74766135215759277 0.38879421353340149 0.19896483421325684
0.76686429977416992 0.38029220700263977 0.19610893726348877
0.78631418943405151 0.36918637156486511 0.19011698663234711
0.8070608377456665 0.35662314295768738 0.18243424594402313
0.82963281869888306 0.34326428174972534 0.17380146682262421
0.8541412353515625 0.32958140969276428 0.16461822390556335
0.11032006144523621 0.61167448759078979 0.10842519998550415
0.18969236314296722 0.60573863983154297 0.098450176417827606
0.23587922751903534 0.60661625862121582 0.11776649206876755
0.2645428478717804 0.59209394454956055 0.14579065144062042
0.294425368309021 0.58093756437301636 0.16718222200870514
0.32255178689956665 0.57201617956161499 0.16289916634559631
0.34996631741523743 0.57581645250320435 0.15793253481388092
0.37440091371536255 0.58285528421401978 0.15600450336933136
0.39989995956420898 0.5916367769241333 0.15065483748912811
0.42211386561393738 0.59190511703491211 0.14517727494239807
0.44209280610084534 0.58357888460159302 0.15061095356941223
0.46409788727760315 0.57849270105361938 0.14413730800151825
0.48251354694366455 0.56465476751327515 0.14004458487033844
0.50542408227920532 0.57753098011016846 0.14908802509307861
0.52321380376815796 0.57763594388961792 0.17333760857582092
0.54146301746368408 0.55417722463607788 0.17696346342563629
0.55990111827850342 0.53431189060211182 0.17143623530864716
0.57954716682434082 0.52650326490402222 0.16571587324142456
0.60193651914596558 0.5452994704246521 0.16952753067016602
0.62002462148666382 0.54727041721343994 0.17687594890594482
0.63268589973449707 0.53796344995498657 0.18168146908283234
0.64660662412643433 0.51568508148193359 0.18913891911506653
0.66369593143463135 0.48890987038612366 0.19530485570430756
0.68376708030700684 0.4614633321762085 0.19961962103843689
0.70645123720169067 0.43493402004241943 0.20217940211296082
0.72869300842285156 0.4195539653301239 0.20681804418563843
0.74745237827301025 0.41315126419067383 0.20892691612243652
0.76534390449523926 0.40398764610290527 0.20485144853591919
0.78404426574707031 0.39256531000137329 0.19790491461753845
0.80447036027908325 0.37974604964256287 0.18943168222904205
0.82693833112716675 0.36619299650192261 0.18005053699016571
0.85145950317382812 0.35244321823120117 0.17014700174331665
0.12464567273855209 0.62687402963638306 0.11708534508943558
0.19822537899017334 0.62725132703781128 0.10637027025222778
0.23760302364826202 0.6222076416015625 0.10835413634777069
0.26566827297210693 0.60247009992599487 0.1317322701215744
0.29169085621833801 0.58950448036193848 0.15945881605148315
0.31773081421852112 0.57924032211303711 0.16423927247524261
0.34539440274238586 0.57985681295394897 0.1431184709072113
0.37383788824081421 0.5957370400428772 0.13078764081001282
0.40018510818481445 0.61035615205764771 0.13854813575744629
0.41879808902740479 0.59531897306442261 0.15329818427562714
0.44122940301895142 0.59511846303939819 0.15413655340671539
0.46691328287124634 0.6064566969871521 0.14904618263244629
0.48426118493080139 0.59003156423568726 0.15682482719421387
0.5059846043586731 0.60092872381210327 0.15337578952312469
0.52479779720306396 0.58762151002883911 0.15050113201141357
0.54692220687866211 0.58278149366378784 0.15628138184547424
0.56575673818588257 0.57227796316146851 0.1548294872045517
0.58307605981826782 0.55626541376113892 0.15206153690814972
0.60520803928375244 0.58433330059051514 0.15667183697223663
0.62394386529922485 0.59724509716033936 0.16181185841560364
0.63585376739501953 0.56659102439880371 0.18066927790641785
0.65031218528747559 0.53314357995986938 0.19397380948066711
0.66780316829681396 0.50189059972763062 0.20259705185890198
0.6880001425743103 0.47328829765319824 0.20773409307003021
0.71038192510604858 0.44843202829360962 0.21080487966537476
0.73092693090438843 0.43824544548988342 0.21689809858798981
0.74814516305923462 0.43213987350463867 0.21725620329380035
0.76504713296890259 0.42302533984184265 0.21217586100101471
0.78326725959777832 0.41166853904724121 0.20457148551940918
0.80347150564193726 0.39890488982200623 0.19550438225269318
0.82584363222122192 0.38550615310668945 0.1855202317237854
0.85034400224685669 0.37205418944358826 0.17501817643642426
0.1286613941192627 0.6128426194190979 0.10925564914941788
0.19551584124565125 0.61428862810134888 0.11114956438541412
0.23788303136825562 0.60637372732162476 0.09556964784860611
0.27159285545349121 0.60661280155181885 0.11685863882303238
0.2902672290802002 0.58023279905319214 0.14397124946117401
0.31616884469985962 0.56854325532913208 0.15521492063999176
0.34679609537124634 0.58270120620727539 0.12442301958799362
0.37511998414993286 0.59616804122924805 0.10281573235988617
0.40165263414382935 0.60141521692276001 0.12861935794353485
0.42133796215057373 0.59591966867446899 0.15888009965419769
0.4388670027256012 0.57726120948791504 0.15681441128253937
0.4595562219619751 0.56788134574890137 0.16239079833030701
0.48471742868423462 0.57897567749023438 0.17114612460136414
0.50481677055358887 0.57890027761459351 0.16900070011615753
0.52418661117553711 0.57638674974441528 0.16529922187328339
0.54937487840652466 0.59356451034545898 0.15426705777645111
0.56685096025466919 0.5794597864151001 0.15697827935218811
0.58271092176437378 0.5602373480796814 0.16336260735988617
0.60326230525970459 0.56966733932495117 0.1689113974571228
0.62285935878753662 0.57425683736801147 0.17616385221481323
0.63778626918792725 0.55253612995147705 0.18871127068996429
0.65379297733306885 0.52477657794952393 0.2010507732629776
0.67220854759216309 0.4986473023891449 0.20939388871192932
0.69285470247268677 0.47447109222412109 0.2143406867980957
0.71499496698379517 0.45502322912216187 0.2180846780538559
0.73395097255706787 0.45037305355072021 0.2247551828622818
0.74995338916778564 0.44494062662124634 0.22356158494949341
0.76630949974060059 0.4363214373588562 0.21805083751678467
0.7842680811882019 0.42538177967071533 0.21016515791416168
0.80430704355239868 0.41309785842895508 0.20074708759784698
0.82656300067901611 0.40031442046165466 0.19035086035728455
0.85098016262054443 0.3876153826713562 0.17940820753574371
0.11769008636474609 0.58882319927215576 0.10965343564748764
0.19721929728984833 0.59063702821731567 0.11190731078386307
0.23800137639045715 0.5849224328994751 0.10347509384155273
0.27334052324295044 0.58603388071060181 0.10117232799530029
0.29603016376495361 0.57057428359985352 0.12789767980575562
0.31501856446266174 0.54998326301574707 0.12696106731891632
0.341187983751297 0.55099260807037354 0.12368687242269516
0.37348771095275879 0.56768190860748291 0.12953560054302216
0.4015059769153595 0.57882356643676758 0.13073700666427612
0.42450174689292908 0.58331131935119629 0.14627085626125336
0.44120496511459351 0.56953126192092896 0.16144785284996033
0.45743954181671143 0.54751402139663696 0.16424684226512909
0.48000863194465637 0.54651159048080444 0.16697445511817932
0.50577610731124878 0.56534075736999512 0.17740988731384277
0.52451318502426147 0.5592191219329834 0.17887094616889954
0.54308724403381348 0.55474627017974854 0.17495979368686676
0.56262630224227905 0.54750841856002808 0.1728234738111496
0.58028137683868408 0.54670864343643188 0.1949048787355423
0.5992247462272644 0.53255975246429443 0.1951153576374054
0.6194683313369751 0.52591580152511597 0.19784393906593323
0.63689911365509033 0.51552903652191162 0.20300847291946411
0.65441644191741943 0.49888068437576294 0.20782493054866791
0.67423522472381592 0.48087489604949951 0.21269214153289795
0.69628071784973145 0.4638645350933075 0.21685461699962616
0.71868902444839478 0.45401835441589355 0.22314946353435516
0.73680382966995239 0.45322233438491821 0.22900666296482086
0.75259333848953247 0.44902893900871277 0.22770155966281891
0.7689439058303833 0.44149202108383179 0.22251023352146149
0.78686916828155518 0.43167167901992798 0.214723140001297
0.8068196177482605 0.42060303688049316 0.20521649718284607
0.82895183563232422 0.40912243723869324 0.19461993873119354
0.85322725772857666 0.39777928590774536 0.18341368436813354
0.11215239018201828 0.55626106262207031 0.099528506398200989
0.20078253746032715 0.55738997459411621 0.1093590036034584
0.23825946450233459 0.55616867542266846 0.11684247851371765
0.27444517612457275 0.55571526288986206 0.10927628725767136
0.30252894759178162 0.55335724353790283 0.11559806019067764
0.31906184554100037 0.53484880924224854 0.1266845166683197
0.34171807765960693 0.52878880500793457 0.13216313719749451
0.37826088070869446 0.55095398426055908 0.14160600304603577
0.39774343371391296 0.54039299488067627 0.13195399940013885
0.41785764694213867 0.53389894962310791 0.1487942636013031
0.43907997012138367 0.53421610593795776 0.16066589951515198
0.45681405067443848 0.52029359340667725 0.15796460211277008
0.47745391726493835 0.51236814260482788 0.15940435230731964
0.50218158960342407 0.52220112085342407 0.16799955070018768
0.52241021394729614 0.52160638570785522 0.17275559902191162
0.54171657562255859 0.52086019515991211 0.17428006231784821
0.56183159351348877 0.52236819267272949 0.18024291098117828
0.57914489507675171 0.51484447717666626 0.19829638302326202
0.59730690717697144 0.50146061182022095 0.21064986288547516
0.6173250675201416 0.4870867133140564 0.21255357563495636
0.63659912347793579 0.47942861914634705 0.216138556599617
0.65495038032531738 0.46983593702316284 0.2169373631477356
0.67504757642745972 0.45815852284431458 0.21622776985168457
0.69752979278564453 0.44662284851074219 0.21609668433666229
0.71979492902755737 0.44295611977577209 0.22274568676948547
0.73793089389801025 0.44395935535430908 0.22821861505508423
0.75452488660812378 0.4418100118637085 0.22802644968032837
0.77149885892868042 0.43650186061859131 0.22389860451221466
0.78980118036270142 0.42891913652420044 0.21683087944984436
0.80991780757904053 0.42005833983421326 0.20774070918560028
0.83205103874206543 0.41071462631225586 0.19733025133609772
0.85621511936187744 0.40140509605407715 0.186150923371315
0.12136467546224594 0.51974862813949585 0.097773201763629913
0.19832661747932434 0.52118766307830811 0.11623963713645935
0.23835760354995728 0.52134513854980469 0.11455528438091278
0.27398756146430969 0.51954865455627441 0.11274842917919159
0.30219501256942749 0.51748865842819214 0.10145626962184906
0.32296234369277954 0.50797885656356812 0.12952998280525208
0.3434259295463562 0.49962759017944336 0.1328146904706955
0.37713414430618286 0.51232564449310303 0.13231512904167175
0.39979878067970276 0.50919276475906372 0.12476173043251038
0.41700351238250732 0.49714195728302002 0.14935494959354401
0.4386938214302063 0.49352359771728516 0.14300547540187836
0.45949199795722961 0.48888349533081055 0.14225476980209351
0.47818994522094727 0.48363184928894043 0.1484525203704834
0.50395786762237549 0.4957008957862854 0.16775697469711304
0.52573555707931519 0.50129896402359009 0.17841547727584839
0.54311805963516235 0.49893346428871155 0.18105040490627289
0.56229621171951294 0.50114578008651733 0.19280795753002167
0.57940316200256348 0.48941463232040405 0.20436370372772217
0.59700322151184082 0.47240751981735229 0.21417950093746185
0.61691969633102417 0.45903041958808899 0.22047248482704163
0.63715630769729614 0.4532192051410675 0.22596864402294159
0.65603101253509521 0.44744241237640381 0.22592075169086456
0.67595875263214111 0.44032648205757141 0.22348107397556305
0.69769328832626343 0.43238192796707153 0.2190772145986557
0.71955287456512451 0.42861273884773254 0.2187027633190155
0.73845875263214111 0.43011730909347534 0.22336319088935852
0.7560388445854187 0.42972671985626221 0.22417311370372772
0.77388542890548706 0.42683890461921692 0.22135354578495026
0.79282176494598389 0.42183232307434082 0.21543966233730316
0.81334233283996582 0.41552251577377319 0.20726227760314941
0.83566015958786011 0.40864121913909912 0.19752311706542969
0.859810471534729 0.40165466070175171 0.18677802383899689
0.13860718905925751 0.47741192579269409 0.091312922537326813
0.19498246908187866 0.47683081030845642 0.11705531179904938
0.24005226790904999 0.47956854104995728 0.11373495310544968
0.27221536636352539 0.47643017768859863 0.11565329134464264
0.30516731739044189 0.4770558774471283 0.10687810182571411
0.32889428734779358 0.4696560800075531 0.12934146821498871
0.34639251232147217 0.4626794159412384 0.13884223997592926
0.36892178654670715 0.46356728672981262 0.13799145817756653
0.40154129266738892 0.47373533248901367 0.14865018427371979
0.42345693707466125 0.46796846389770508 0.13896583020687103
0.44795122742652893 0.46790522336959839 0.11927193403244019
0.46648931503295898 0.46458449959754944 0.13241608440876007
0.48080414533615112 0.45834508538246155 0.14606817066669464
0.50554192066192627 0.46735495328903198 0.16850276291370392
0.52688831090927124 0.47325396537780762 0.18610864877700806
0.54169225692749023 0.46660223603248596 0.19471421837806702
0.55925673246383667 0.46385505795478821 0.20219729840755463
0.57783865928649902 0.45766046643257141 0.21010434627532959
0.5967528223991394 0.44615039229393005 0.21688807010650635
0.61713570356369019 0.43498921394348145 0.22141200304031372
0.63817989826202393 0.43030968308448792 0.22749090194702148
0.65747326612472534 0.42601144313812256 0.22809658944606781
0.6769787073135376 0.4215981662273407 0.22633729875087738
0.69719898700714111 0.41853746771812439 0.22319388389587402
0.71848183870315552 0.41641378402709961 0.21815499663352966
0.73901945352554321 0.41635599732398987 0.21669438481330872
0.75758188962936401 0.41679748892784119 0.21720539033412933
0.77632761001586914 0.41606760025024414 0.21558184921741486
0.79612237215042114 0.41373467445373535 0.21105349063873291
0.81729114055633545 0.41003671288490295 0.20418605208396912
0.84011173248291016 0.40558841824531555 0.19569984078407288
0.86391252279281616 0.40127325057983398 0.18690687417984009
0.15697059035301208 0.43093329668045044 0.091371297836303711
0.19728107750415802 0.43464407324790955 0.1071283146739006
0.23826040327548981 0.43217557668685913 0.12060349434614182
0.27060046792030334 0.43141451478004456 0.12186206132173538
0.30268454551696777 0.43237307667732239 0.11167315393686295
0.33413290977478027 0.43335708975791931 0.11261238157749176
0.35119661688804626 0.42811408638954163 0.14174264669418335
0.36781907081604004 0.42768436670303345 0.14342200756072998
0.39244922995567322 0.4280293881893158 0.13911233842372894
0.42179077863693237 0.42767214775085449 0.12929676473140717
0.44647860527038574 0.42708155512809753 0.12982082366943359
0.46480864286422729 0.42796161770820618 0.14733313024044037
0.48010656237602234 0.42697378993034363 0.16011545062065125
0.5009007453918457 0.43214559555053711 0.16569404304027557
0.52210706472396851 0.43682357668876648 0.17652343213558197
0.53836643695831299 0.43281394243240356 0.19680677354335785
0.55562424659729004 0.42892873287200928 0.21085546910762787
0.57506996393203735 0.42568159103393555 0.2164236307144165
0.59540402889251709 0.41992023587226868 0.2184826135635376
0.61700260639190674 0.41323363780975342 0.21941673755645752
0.63914656639099121 0.40923014283180237 0.22624160349369049
0.65881097316741943 0.40689381957054138 0.23033355176448822
0.67731636762619019 0.40623041987419128 0.22999559342861176
0.69671434164047241 0.40649765729904175 0.22663392126560211
0.7170412540435791 0.40731838345527649 0.22324447333812714
0.73662441968917847 0.40799477696418762 0.22104427218437195
0.75641477108001709 0.40791073441505432 0.2169145941734314
0.77730399370193481 0.40740025043487549 0.2111695408821106
0.79895049333572388 0.40675833821296692 0.20530080795288086
0.82156664133071899 0.40552517771720886 0.19900734722614288
0.84410607814788818 0.40380418300628662 0.19327534735202789
0.86642765998840332 0.40196001529693604 0.18688112497329712
0.18466071784496307 0.40293881297111511 0.10829751193523407
0.20249997079372406 0.39908978343009949 0.12205152958631516
0.23976495862007141 0.39572271704673767 0.10311935096979141
0.27095195651054382 0.39754095673561096 0.12219250202178955
0.3016282320022583 0.39748024940490723 0.11232646554708481
0.33265286684036255 0.40053585171699524 0.10560426115989685
0.35526597499847412 0.39478611946105957 0.13684594631195068
0.37422415614128113 0.39572647213935852 0.15346477925777435
0.39326876401901245 0.39491811394691467 0.13478513062000275
0.42355525493621826 0.39258646965026855 0.12841878831386566
0.4468403160572052 0.39524129033088684 0.14546620845794678
0.46606138348579407 0.39692816138267517 0.16469442844390869
0.48196285963058472 0.39947032928466797 0.15538559854030609
0.49832883477210999 0.40465578436851501 0.15656068921089172
0.51824772357940674 0.4075579047203064 0.16364967823028564
