projects/Week3-Starter/res/luts/custom.cube
# Created by: G'MIC (https://gmic.eu)
TITLE "custom"
# LUT size
LUT_3D_SIZE 5
# Data domain
# LUT data points
DOMAIN_MIN 0.000000 0.000000 0.000000
DOMAIN_MAX 0.903226 0.903226 0.903226
0.11955823004245758 0.036153323948383331 0.12074197083711624
0.37261331081390381 0.13123124837875366 0.1548706442117691
0.51126253604888916 0.44723519682884216 0.14125430583953857
0.64627736806869507 0.37561213970184326 0.2099556177854538
0.79918909072875977 0.27976703643798828 0.16273574531078339
0.11769008636474609 0.58882319927215576 0.10965343564748764
0.37348771095275879 0.56768190860748291 0.12953560054302216
0.52451318502426147 0.5592191219329834 0.17887094616889954
0.65441644191741943 0.49888068437576294 0.20782493054866791
0.78686916828155518 0.43167167901992798 0.214723140001297
0.21839916706085205 0.37152209877967834 0.094699189066886902
0.38186278939247131 0.34683150053024292 0.11939607560634613
0.52897149324417114 0.34836459159851074 0.15846192836761475
0.65999627113342285 0.38953518867492676 0.22031658887863159
0.79913169145584106 0.40523442625999451 0.21290810406208038
0.23088487982749939 0.4476436972618103 0.085925154387950897
0.37888923287391663 0.33965718746185303 0.17326769232749939
0.5108191967010498 0.40334650874137878 0.16479535400867462
0.65663707256317139 0.41736829280853271 0.22891645133495331
0.80143254995346069 0.50289559364318848 0.20648904144763947
0.17796239256858826 0.64272809028625488 0.090871542692184448
0.32970437407493591 0.57194286584854126 0.12029758095741272
0.49296948313713074 0.60749894380569458 0.13580656051635742
0.66612184047698975 0.56798297166824341 0.20162166655063629
0.78983539342880249 0.63433516025543213 0.22182671725749969
0.17563726007938385 0.41980618238449097 0.32825934886932373
0.33771198987960815 0.42426696419715881 0.32571011781692505
0.50676047801971436 0.42795485258102417 0.32930168509483337
0.65335625410079956 0.42679542303085327 0.33349943161010742
0.8021690845489502 0.29308289289474487 0.30782389640808105
0.22431398928165436 0.51558256149291992 0.35122805833816528
0.38529282808303833 0.58942562341690063 0.38297790288925171
0.53322887420654297 0.58537918329238892 0.38048964738845825
0.66211611032485962 0.5695231556892395 0.37767750024795532
0.76804608106613159 0.48169824481010437 0.36118045449256897
0.21578909456729889 0.42844736576080322 0.30233216285705566
0.37750145792961121 0.39159929752349854 0.34038200974464417
0.53237205743789673 0.34277531504631042 0.38055571913719177
0.66278469562530518 0.34703916311264038 0.3829008936882019
0.77902728319168091 0.3780379593372345 0.3826734721660614
0.20945815742015839 0.50911253690719604 0.27788609266281128
0.36679252982139587 0.45351302623748779 0.30210164189338684
0.52875488996505737 0.37390625476837158 0.34836584329605103
0.66031640768051147 0.34165969491004944 0.3781096339225769
0.78362357616424561 0.40609776973724365 0.38723763823509216
0.18149411678314209 0.67423510551452637 0.27089542150497437
0.34579923748970032 0.62122350931167603 0.28467300534248352
0.52198982238769531 0.58434665203094482 0.30891305208206177
0.67282122373580933 0.51100260019302368 0.35491380095481873
0.77937114238739014 0.53558236360549927 0.3875526487827301
0.16705513000488281 0.30257564783096313 0.45293980836868286
0.3087649941444397 0.26795956492424011 0.46644026041030884
0.48709315061569214 0.24493759870529175 0.45889195799827576
0.64887732267379761 0.2474069744348526 0.45618760585784912
0.82473218441009521 0.18922735750675201 0.46179819107055664
0.2284313291311264 0.43313953280448914 0.47419226169586182
0.35573959350585938 0.44348326325416565 0.49475783109664917
0.49962985515594482 0.37153160572052002 0.47844293713569641
0.64618176221847534 0.37245073914527893 0.47317501902580261
0.79824715852737427 0.34491568803787231 0.47655054926872253
0.23459294438362122 0.43993633985519409 0.48943698406219482
0.40445050597190857 0.38748806715011597 0.51498442888259888
0.53250139951705933 0.34417241811752319 0.531840980052948
0.65943771600723267 0.3440190851688385 0.52106797695159912
0.78336495161056519 0.3415321409702301 0.52024996280670166
0.18936307728290558 0.54760205745697021 0.4735475480556488
0.39863142371177673 0.45501118898391724 0.4907219409942627
0.53232628107070923 0.36712831258773804 0.51625865697860718
0.66146391630172729 0.33411839604377747 0.52837777137756348
0.78262871503829956 0.32073765993118286 0.53339385986328125
0.14830233156681061 0.74064058065414429 0.46610307693481445
0.35383427143096924 0.6626172661781311 0.47590497136116028
0.52227175235748291 0.59428703784942627 0.49001240730285645
0.67311704158782959 0.53732860088348389 0.50722235441207886
0.78439712524414062 0.49321666359901428 0.52880728244781494
0.13504232466220856 0.17103320360183716 0.61524361371994019
0.2981255054473877 0.15815339982509613 0.62300097942352295
0.47033509612083435 0.12380439043045044 0.63445359468460083
0.65367358922958374 0.12220732122659683 0.63310873508453369
0.83997684717178345 0.10898080468177795 0.63662809133529663
0.17512416839599609 0.32267579436302185 0.61211943626403809
0.33732172846794128 0.3245503306388855 0.604877769947052
0.4817689061164856 0.29023462533950806 0.6210094690322876
0.6473541259765625 0.27709221839904785 0.62480270862579346
0.81786626577377319 0.27561077475547791 0.62348997592926025
0.20193329453468323 0.41965183615684509 0.63228881359100342
0.38878747820854187 0.38454300165176392 0.61892139911651611
0.51251226663589478 0.34287267923355103 0.62770313024520874
0.64659976959228516 0.35313621163368225 0.62419122457504272
0.79471117258071899 0.35914859175682068 0.62644678354263306
0.18182878196239471 0.56053400039672852 0.64986062049865723
0.39366051554679871 0.488544762134552 0.64225322008132935
0.54903960227966309 0.38474872708320618 0.64480537176132202
0.65851324796676636 0.3363979160785675 0.6572691798210144
0.7822415828704834 0.34224367141723633 0.6575886607170105
0.14513443410396576 0.75664246082305908 0.65644055604934692
0.36633551120758057 0.67445015907287598 0.64826858043670654
0.54906255006790161 0.56206995248794556 0.64512193202972412
0.66775280237197876 0.48248898983001709 0.66132539510726929
0.78759956359863281 0.49876013398170471 0.66119343042373657
0.092972628772258759 0.097622379660606384 0.8189619779586792
0.28146278858184814 0.099439859390258789 0.81318521499633789
0.46741914749145508 0.084004178643226624 0.82294625043869019
0.6598392128944397 0.070408128201961517 0.83666825294494629
0.85503476858139038 0.069103814661502838 0.83818197250366211
0.12009827792644501 0.2785697877407074 0.80180388689041138
0.30579721927642822 0.2789158821105957 0.78318256139755249
0.47737371921539307 0.26348495483398438 0.79142206907272339
0.6539807915687561 0.25729420781135559 0.80691003799438477
0.8339046835899353 0.2576591968536377 0.81031906604766846
0.14520148932933807 0.42151996493339539 0.80925416946411133
0.3385118842124939 0.40452888607978821 0.77789467573165894
0.49625593423843384 0.38418039679527283 0.76255857944488525
0.65351581573486328 0.38948473334312439 0.77525824308395386
0.81516987085342407 0.3951079249382019 0.78021132946014404
0.14667980372905731 0.58464968204498291 0.82948589324951172
0.35905188322067261 0.53481996059417725 0.79675036668777466
0.53224647045135498 0.47329002618789673 0.76303905248641968
0.66611891984939575 0.4426724910736084 0.75746649503707886
0.79915922880172729 0.47047197818756104 0.76674956083297729
0.12140672653913498 0.78523075580596924 0.84555774927139282
0.34418380260467529 0.72219502925872803 0.81721353530883789
0.5347822904586792 0.65524923801422119 0.78854572772979736
0.68803095817565918 0.58090466260910034 0.77003085613250732
0.79188358783721924 0.50890219211578369 0.77792239189147949
