projects/Week3-Starter/res/luts/warms.cube
# Created by: G'MIC (https://gmic.eu)
TITLE "warms"
# LUT size
LUT_3D_SIZE 32
# Data domain
DOMAIN_MIN 0.0 0.0 0.0
DOMAIN_MAX 1.0 1.0 1.0
# LUT data points
0.99999994039535522 0.55294108390808105 0.55294108390808105
0.99999994039535522 0.55294108390808105 0.55294108390808105
0.98582959175109863 0.54455989599227905 0.54472178220748901
0.97716540098190308 0.53899937868118286 0.53908038139343262
0.9419407844543457 0.51625967025756836 0.51622140407562256
0.90105485916137695 0.48812690377235413 0.48807811737060547
0.91485631465911865 0.49517333507537842 0.49517330527305603
0.96491295099258423 0.52824735641479492 0.52824735641479492
0.96652704477310181 0.52824729681015015 0.52824735641479492
0.92523097991943359 0.49517333507537842 0.49517333507537842
0.88354051113128662 0.45875278115272522 0.45875278115272522
0.84905552864074707 0.42485293745994568 0.42485296726226807
0.85065948963165283 0.419748455286026 0.41972988843917847
0.87309050559997559 0.43351268768310547 0.43349102139472961
0.88314229249954224 0.43655067682266235 0.43652823567390442
0.88161385059356689 0.42774417996406555 0.42772388458251953
0.87322503328323364 0.41008085012435913 0.41006413102149963
0.86293315887451172 0.38765949010848999 0.38764619827270508
0.85383510589599609 0.36340677738189697 0.36339625716209412
0.84743082523345947 0.33897170424461365 0.33896329998970032
0.84431314468383789 0.31520813703536987 0.31520131230354309
0.84475350379943848 0.29276853799819946 0.29276299476623535
0.85005968809127808 0.27451485395431519 0.27451011538505554
0.85893332958221436 0.25924161076545715 0.25923749804496765
0.86960726976394653 0.24401646852493286 0.24401290714740753
0.88211870193481445 0.22896707057952881 0.22896397113800049
0.89675521850585938 0.21515040099620819 0.21514499187469482
0.9133760929107666 0.20282429456710815 0.20281951129436493
0.93148523569107056 0.19077053666114807 0.19076631963253021
0.95104062557220459 0.17903780937194824 0.17903406918048859
0.97199892997741699 0.16780985891819 0.16780656576156616
0.99427598714828491 0.15729939937591553 0.15729649364948273
0.9949796199798584 0.55036324262619019 0.55020135641098022
0.99999994039535522 0.55294108390808105 0.55294108390808105
0.98582959175109863 0.54512667655944824 0.54455989599227905
0.97724640369415283 0.53980910778045654 0.53908038139343262
0.934531569480896 0.51405918598175049 0.51157408952713013
0.8932880163192749 0.48719456791877747 0.48300430178642273
0.8881218433380127 0.48145881295204163 0.47695320844650269
0.92335677146911621 0.50195795297622681 0.49869021773338318
0.93157285451889038 0.50539964437484741 0.50234299898147583
0.91812616586685181 0.49338385462760925 0.48960417509078979
0.8878408670425415 0.4675062894821167 0.46215987205505371
0.85953927040100098 0.44068619608879089 0.43370124697685242
0.86609464883804321 0.44050848484039307 0.43349102139472961
0.89060813188552856 0.45602652430534363 0.44995477795600891
0.90042757987976074 0.45956063270568848 0.45370367169380188
0.89606410264968872 0.44943395256996155 0.4429609477519989
0.88412779569625854 0.4299761950969696 0.42231482267379761
0.87088006734848022 0.40631541609764099 0.3972037136554718
0.8596121072769165 0.38150599598884583 0.37086948752403259
0.85165935754776001 0.35702395439147949 0.34488028287887573
0.8476225733757019 0.33382010459899902 0.32024672627449036
0.84944790601730347 0.31534090638160706 0.30062922835350037
0.85541695356369019 0.30009415745735168 0.28444170951843262
0.86316519975662231 0.28463765978813171 0.26803100109100342
0.87282538414001465 0.26918214559555054 0.25162115693092346
0.88467735052108765 0.25446063280105591 0.235989049077034
0.89896667003631592 0.24163155257701874 0.22236637771129608
0.91497749090194702 0.22930096089839935 0.20927432179450989
0.93256443738937378 0.2172243744134903 0.1964518278837204
0.95171117782592773 0.20562705397605896 0.184138223528862
0.97234934568405151 0.19475999474525452 0.17259986698627472
0.99434071779251099 0.18441005051136017 0.16161046922206879
0.9899592399597168 0.54802840948104858 0.54746156930923462
0.99020212888717651 0.54802840948104858 0.54738062620162964
0.97627472877502441 0.54069983959197998 0.53916138410568237
0.98639637231826782 0.54561257362365723 0.54455989599227905
0.93743360042572021 0.5180896520614624 0.513397216796875
0.88827627897262573 0.48832413554191589 0.47972223162651062
0.87244910001754761 0.47630223631858826 0.46615990996360779
0.89965564012527466 0.4902854859828949 0.48184111714363098
0.91455161571502686 0.49727299809455872 0.48972213268280029
0.9085230827331543 0.4906013011932373 0.4821992814540863
0.89315903186798096 0.47659996151924133 0.46648663282394409
0.87873756885528564 0.46196883916854858 0.45001229643821716
0.87204164266586304 0.45213475823402405 0.43877363204956055
0.89459770917892456 0.4653906524181366 0.45370379090309143
0.90440058708190918 0.4688839316368103 0.45765000581741333
0.89930760860443115 0.45890846848487854 0.44637978076934814
0.8864978551864624 0.43997347354888916 0.42497736215591431
0.87256628274917603 0.41720530390739441 0.39923134446144104
0.86081844568252563 0.39351055026054382 0.37242990732192993
0.85279548168182373 0.37056559324264526 0.34647285938262939
0.85153138637542725 0.35265979170799255 0.32621732354164124
0.85488253831863403 0.33808082342147827 0.3097209632396698
0.85976773500442505 0.32286655902862549 0.29250463843345642
0.86649799346923828 0.30735871195793152 0.27495548129081726
0.87539422512054443 0.29210788011550903 0.25769689679145813
0.88706445693969727 0.27871984243392944 0.24254304170608521
0.90085536241531372 0.2663378119468689 0.22853054106235504
0.91631883382797241 0.25409966707229614 0.21468067169189453
0.93348550796508789 0.24228373169898987 0.20130860805511475
0.95231735706329346 0.23118835687637329 0.18875180184841156
0.97265380620956421 0.22058695554733276 0.17675374448299408
0.99439573287963867 0.21043917536735535 0.16526897251605988
0.98485797643661499 0.54609835147857666 0.54472178220748901
0.98040437698364258 0.54376351833343506 0.54198205471038818
0.96496051549911499 0.5359007716178894 0.53241807222366333
0.97534185647964478 0.54068410396575928 0.53786498308181763
0.93743360042572021 0.52039045095443726 0.513397216796875
0.89222753047943115 0.49471691250801086 0.48233658075332642
0.90468341112136841 0.49939993023872375 0.48803085088729858
0.89978688955307007 0.49428939819335938 0.48184114694595337
0.89810812473297119 0.49075135588645935 0.47760403156280518
0.90792602300643921 0.49428942799568176 0.48184111714363098
0.91982847452163696 0.49939990043640137 0.48803085088729858
0.90366816520690918 0.48542538285255432 0.47110450267791748
0.87803936004638672 0.46308198571205139 0.44401216506958008
0.88316595554351807 0.4623320996761322 0.4429609477519989
0.89305567741394043 0.46516013145446777 0.44637969136238098
0.88996350765228271 0.4570125937461853 0.43652904033660889
0.87958961725234985 0.44104647636413574 0.41721612215042114
0.86760890483856201 0.42125958204269409 0.39326980710029602
0.8575977087020874 0.40060499310493469 0.36826646327972412
0.85454463958740234 0.3846336305141449 0.34893405437469482
0.85618352890014648 0.37173104286193848 0.33330819010734558
0.85869789123535156 0.35752522945404053 0.31610164046287537
0.86270898580551147 0.34254428744316101 0.29795509576797485
0.86873245239257812 0.32739010453224182 0.27959772944450378
0.87755012512207031 0.3135303258895874 0.26280483603477478
0.88905197381973267 0.30130323767662048 0.24799282848834991
0.90231478214263916 0.28916975855827332 0.23329338431358337
0.9173845648765564 0.2773546576499939 0.21897968649864197
0.93427729606628418 0.26621508598327637 0.20548401772975922
0.95281362533569336 0.25551769137382507 0.1925235241651535
0.97289639711380005 0.24523335695266724 0.18006330728530884
0.99443942308425903 0.23542051017284393 0.16817419230937958
0.98995918035507202 0.54867619276046753 0.54746156930923462
0.98040437698364258 0.54441124200820923 0.54198205471038818
0.99044507741928101 0.54867619276046753 0.54746156930923462
0.94600212574005127 0.52769970893859863 0.52003198862075806
0.90581512451171875 0.50742995738983154 0.49347925186157227
0.88609826564788818 0.49587270617485046 0.47840586304664612
0.91496539115905762 0.50863957405090332 0.49500745534896851
0.91560465097427368 0.50711482763290405 0.49306198954582214
0.92436897754669189 0.51007789373397827 0.49695295095443726
0.92375969886779785 0.50781631469726562 0.49399182200431824
0.9309045672416687 0.51010763645172119 0.49695292115211487
0.91135632991790771 0.49523466825485229 0.47760400176048279
0.88501232862472534 0.47420904040336609 0.45021483302116394
0.87140613794326782 0.46013331413269043 0.43188238143920898
0.87774926424026489 0.45960476994514465 0.43114712834358215
0.87459397315979004 0.45131364464759827 0.42030078172683716
0.86603075265884399 0.43725958466529846 0.40196636319160461
0.85948073863983154 0.42306086421012878 0.38351905345916748
0.85895591974258423 0.41267082095146179 0.37006211280822754
0.86021888256072998 0.40257376432418823 0.35689827799797058
0.86091649532318115 0.39002618193626404 0.34053874015808105
0.86237424612045288 0.37601089477539062 0.32226565480232239
0.86551904678344727 0.36136898398399353 0.30317562818527222
0.87093210220336914 0.34680524468421936 0.28418183326721191
0.87937241792678833 0.33373278379440308 0.26711234450340271
0.89037108421325684 0.32184597849845886 0.25160965323448181
0.90332978963851929 0.31033697724342346 0.23660968244075775
0.91822314262390137 0.2994067370891571 0.22236344218254089
0.93486356735229492 0.28882640600204468 0.20857231318950653
0.95316898822784424 0.27858635783195496 0.19522449374198914
0.97306960821151733 0.26876822113990784 0.18242630362510681
0.99447053670883179 0.25942200422286987 0.17024314403533936
0.99999994039535522 0.55294108390808105 0.55294108390808105
0.99020212888717651 0.549000084400177 0.54746156930923462
0.99052602052688599 0.549000084400177 0.54746156930923462
0.9510536789894104 0.53176677227020264 0.52312934398651123
0.90387493371963501 0.50992733240127563 0.49227249622344971
0.87664735317230225 0.49576646089553833 0.47222059965133667
0.90807777643203735 0.50858902931213379 0.49042737483978271
0.92090529203414917 0.51314234733581543 0.49689042568206787
0.92613160610198975 0.51427346467971802 0.49832668900489807
0.93580085039138794 0.51771324872970581 0.50327873229980469
0.92291134595870972 0.50880342721939087 0.49050027132034302
0.90585321187973022 0.49636372923851013 0.47295117378234863
0.88475370407104492 0.480049729347229 0.44998380541801453
0.87969547510147095 0.47272771596908569 0.43965381383895874
0.88316202163696289 0.47049161791801453 0.43650293350219727
0.87650400400161743 0.46041017770767212 0.42229506373405457
0.86738872528076172 0.44705593585968018 0.40350446105003357
0.87080693244934082 0.44254234433174133 0.39717456698417664
0.87251806259155273 0.43577009439468384 0.38761967420578003
0.87129628658294678 0.42498829960823059 0.37240758538246155
0.86956530809402466 0.41174566745758057 0.35372340679168701
0.86898845434188843 0.39729312062263489 0.33333215117454529
0.87051135301589966 0.38247919082641602 0.31243103742599487
0.87458115816116333 0.36783096194267273 0.29176363348960876
0.88138937950134277 0.35374161601066589 0.27188068628311157
0.89124470949172974 0.34108844399452209 0.25400456786155701
0.90398228168487549 0.33027911186218262 0.2387428879737854
0.91872298717498779 0.32009428739547729 0.22437779605388641
0.93519735336303711 0.31013485789299011 0.21033006906509399
0.95338398218154907 0.30059128999710083 0.19687087833881378
0.97322440147399902 0.29186612367630005 0.18457771837711334
0.99450796842575073 0.2837086021900177 0.1730787456035614
0.9899592399597168 0.54932397603988647 0.54746156930923462
0.99012118577957153 0.54932397603988647 0.54746156930923462
0.99052602052688599 0.54932397603988647 0.54746156930923462
0.98186188936233521 0.54570686817169189 0.54182010889053345
0.92717444896697998 0.52295523881912231 0.50698196887969971
0.89378482103347778 0.50772398710250854 0.48348546028137207
0.94177705049514771 0.52720165252685547 0.51339727640151978
0.9650837779045105 0.53673672676086426 0.52807658910751343
0.9383510947227478 0.52335280179977417 0.50737524032592773
0.94885379076004028 0.52729266881942749 0.51331371068954468
0.91992455720901489 0.51081991195678711 0.48807817697525024
0.88988298177719116 0.49223119020462036 0.45943912863731384
0.87408345937728882 0.47989857196807861 0.44048824906349182
0.87634134292602539 0.47731229662895203 0.43650296330451965
0.88010579347610474 0.47533333301544189 0.43346700072288513
0.8742029070854187 0.46647089719772339 0.41986912488937378
0.87732261419296265 0.46306616067886353 0.41473302245140076
0.88342195749282837 0.46151629090309143 0.41235151886940002
0.88307172060012817 0.45430570840835571 0.40127184987068176
0.87960952520370483 0.44309127330780029 0.38403865694999695
0.87590086460113525 0.42964571714401245 0.36337536573410034
0.87373870611190796 0.4152660071849823 0.34127497673034668
0.8740418553352356 0.40075543522834778 0.31897258758544922
0.87718719244003296 0.38657534122467041 0.29717725515365601
0.88325011730194092 0.37297755479812622 0.27627649903297424
0.89219295978546143 0.36017933487892151 0.25659939646720886
0.90434658527374268 0.34935259819030762 0.23993995785713196
0.91922891139984131 0.34055113792419434 0.22643502056598663
0.9358748197555542 0.33241727948188782 0.21394024789333344
0.95403194427490234 0.32454314827919006 0.20183524489402771
0.97361123561859131 0.31677713990211487 0.18989652395248413
0.99458587169647217 0.30921187996864319 0.17826639115810394
0.98477691411972046 0.54812270402908325 0.54464083909988403
0.98526275157928467 0.54804176092147827 0.54472178220748901
0.99999994039535522 0.55294108390808105 0.55294108390808105
0.99538451433181763 0.55133497714996338 0.55020135641098022
0.95146143436431885 0.53475165367126465 0.52229666709899902
0.90759557485580444 0.51704668998718262 0.49245423078536987
0.92700451612472534 0.52368909120559692 0.50334525108337402
0.94425231218338013 0.52967691421508789 0.51339727640151978
0.91679525375366211 0.51662319898605347 0.49139991402626038
0.91605454683303833 0.5146898627281189 0.48807817697525024
0.89995360374450684 0.5051121711730957 0.47198405861854553
0.88395285606384277 0.49464258551597595 0.45439726114273071
0.86966037750244141 0.48404383659362793 0.43652832508087158
0.86187511682510376 0.47604629397392273 0.42290741205215454
0.86626088619232178 0.47416031360626221 0.41971027851104736
0.87037169933319092 0.47185778617858887 0.41591000556945801
0.88402897119522095 0.47561639547348022 0.42227363586425781
0.88952291011810303 0.47408431768417358 0.41968977451324463
0.88809078931808472 0.46701323986053467 0.40776315331459045
0.88348418474197388 0.4561629593372345 0.38945865631103516
0.87880206108093262 0.4433237612247467 0.3677946925163269
0.87588471174240112 0.42973506450653076 0.34486272931098938
0.87562078237533569 0.41612827777862549 0.32189762592315674
0.87834388017654419 0.40290603041648865 0.29957982897758484
0.88409191370010376 0.3902793824672699 0.27826604247093201
0.893271803855896 0.37920355796813965 0.25957918167114258
0.90618789196014404 0.37114056944847107 0.24597543478012085
0.92092519998550415 0.36362743377685547 0.2332901805639267
0.93709874153137207 0.35598558187484741 0.22038751840591431
0.95478135347366333 0.34837177395820618 0.20753225684165955
0.97397947311401367 0.34090232849121094 0.19492062926292419
0.9946523904800415 0.3336600661277771 0.18269261717796326
0.97271722555160522 0.54486387968063354 0.5380595326423645
0.98040437698364258 0.54700237512588501 0.54198205471038818
0.99052602052688599 0.5500527024269104 0.54746156930923462
0.98631536960601807 0.54852753877639771 0.54464083909988403
0.98242861032485962 0.54692143201828003 0.54182010889053345
0.93973433971405029 0.5318031907081604 0.51339727640151978
0.89809644222259521 0.51593005657196045 0.48361903429031372
0.89178746938705444 0.51216083765029907 0.47629880905151367
0.87688535451889038 0.50447535514831543 0.46195974946022034
0.87243801355361938 0.50049662590026855 0.45446118712425232
0.87816274166107178 0.50043267011642456 0.45439726114273071
0.87870538234710693 0.49805042147636414 0.4499548077583313
0.86624777317047119 0.48923927545547485 0.43349102139472961
0.84888499975204468 0.4770219624042511 0.41062954068183899
0.84777271747589111 0.472098708152771 0.40135979652404785
0.86698752641677856 0.47795066237449646 0.41235151886940002
0.88173079490661621 0.48187646269798279 0.41968977451324463
0.88743436336517334 0.48053252696990967 0.41717782616615295
0.88637953996658325 0.47431272268295288 0.40555012226104736
0.88216942548751831 0.46472436189651489 0.38761952519416809
0.87782150506973267 0.45332780480384827 0.36630105972290039
0.87516146898269653 0.44122377038002014 0.34365373849868774
0.87508982419967651 0.42907249927520752 0.32091405987739563
0.87795555591583252 0.41724276542663574 0.29877322912216187
0.88453137874603271 0.40684673190116882 0.27932915091514587
0.89545822143554688 0.39950594305992126 0.26559928059577942
0.90823644399642944 0.39259639382362366 0.25266173481941223
0.92239397764205933 0.38541239500045776 0.23921018838882446
0.93808937072753906 0.37814664840698242 0.22560545802116394
0.95538496971130371 0.37094417214393616 0.21211905777454376
0.97427469491958618 0.36390969157218933 0.19894711673259735
0.99470555782318115 0.35711589455604553 0.18622563779354095
0.95841139554977417 0.54202944040298462 0.53021436929702759
0.96655279397964478 0.54394078254699707 0.53413689136505127
0.99060696363449097 0.55029565095901489 0.54746156930923462
0.97542273998260498 0.54585230350494385 0.53797852993011475
0.99109286069869995 0.55037665367126465 0.54738062620162964
0.96392291784286499 0.54161512851715088 0.52934914827346802
0.92800670862197876 0.52951431274414062 0.5039559006690979
0.89236199855804443 0.51655888557434082 0.47665110230445862
0.85595554113388062 0.50223416090011597 0.44648188352584839
0.84054434299468994 0.49447038769721985 0.42985808849334717
0.85601955652236938 0.49768462777137756 0.43652832508087158
0.85925197601318359 0.49623507261276245 0.43349102139472961
0.85079014301300049 0.48967006802558899 0.41972988843917847
0.83714377880096436 0.48006877303123474 0.3995983898639679
0.83707880973815918 0.47583439946174622 0.39071547985076904
0.85649335384368896 0.48088404536247253 0.40127184987068176
0.87112468481063843 0.48397940397262573 0.40776312351226807
0.87776815891265869 0.48292407393455505 0.40555006265640259
0.87836885452270508 0.47798386216163635 0.39518871903419495
0.8759312629699707 0.4702167809009552 0.3788926899433136
0.87311536073684692 0.46080166101455688 0.35913214087486267
0.87166082859039307 0.45064112544059753 0.33780065178871155
0.87250339984893799 0.44031763076782227 0.31612208485603333
0.87701570987701416 0.43112790584564209 0.29684358835220337
0.88637745380401611 0.42487016320228577 0.28371626138687134
0.89746659994125366 0.4188694953918457 0.27110674977302551
0.9097324013710022 0.41241535544395447 0.25754401087760925
0.92346096038818359 0.40573716163635254 0.24351005256175995
0.93880546092987061 0.39901217818260193 0.22937749326229095
0.95581948757171631 0.39237117767333984 0.21542105078697205
0.97448641061782837 0.38590657711029053 0.20183521509170532
0.99474352598190308 0.37968114018440247 0.18875177204608917
0.93323099613189697 0.53773391246795654 0.51635754108428955
0.97347849607467651 0.54672712087631226 0.5380595326423645
0.98582959175109863 0.5494992733001709 0.54455989599227905
0.97534173727035522 0.54661357402801514 0.5380595326423645
0.96551847457885742 0.54392248392105103 0.53131622076034546
0.98720616102218628 0.5494992733001709 0.54464083909988403
0.96530109643936157 0.54299330711364746 0.52921098470687866
0.91849797964096069 0.52878224849700928 0.49511650204658508
0.87403380870819092 0.51402509212493896 0.45980742573738098
0.83814537525177002 0.50071680545806885 0.427939772605896
0.82694530487060547 0.49465399980545044 0.41306352615356445
0.83158367872238159 0.49341210722923279 0.4100634753704071
0.82777464389801025 0.48887667059898376 0.39923202991485596
0.82276725769042969 0.48337158560752869 0.38610780239105225
0.83036363124847412 0.48248937726020813 0.38401210308074951
0.84132492542266846 0.4830150306224823 0.3852289617061615
0.854850172996521 0.48479706048965454 0.38945865631103516
0.86286652088165283 0.48402714729309082 0.3876194953918457
0.86577326059341431 0.48037472367286682 0.37889271974563599
0.86587995290756226 0.47449007630348206 0.36482837796211243
0.86536377668380737 0.46716782450675964 0.34732189774513245
0.86579304933547974 0.45908397436141968 0.32798865437507629
0.86932402849197388 0.4516558051109314 0.31025153398513794
0.87791460752487183 0.4468308687210083 0.29873234033584595
0.88788717985153198 0.44204944372177124 0.28728574514389038
0.89862722158432007 0.43662083148956299 0.27428901195526123
0.91059333086013794 0.43080037832260132 0.26035356521606445
0.92407268285751343 0.42479521036148071 0.24597543478012085
0.93921476602554321 0.41876354813575745 0.2315332293510437
0.95606708526611328 0.41282057762145996 0.21730287373065948
0.97460681200027466 0.40704670548439026 0.20347711443901062
0.99476510286331177 0.401539146900177 0.19029080867767334
0.93323099613189697 0.53969323635101318 0.51635754108428955
0.96666622161865234 0.54614472389221191 0.53413695096969604
0.98574858903884888 0.54990404844284058 0.54464083909988403
0.97246897220611572 0.54694807529449463 0.53634059429168701
0.9700855016708374 0.54614478349685669 0.53390985727310181
0.97096043825149536 0.54614472389221191 0.53390985727310181
0.97804731130599976 0.54760193824768066 0.53786498308181763
0.93175309896469116 0.53553575277328491 0.50445866584777832
0.8894047737121582 0.52355110645294189 0.47113031148910522
0.8493761420249939 0.51114273071289062 0.43659293651580811
0.81608450412750244 0.49951356649398804 0.40423765778541565
0.80240988731384277 0.49282628297805786 0.38534298539161682
0.80159842967987061 0.48944634199142456 0.37591081857681274
0.80815732479095459 0.4881608784198761 0.37238419055938721
0.8186689019203186 0.48816093802452087 0.37238419055938721
0.82772558927536011 0.48759925365447998 0.3708244264125824
0.83584684133529663 0.48663046956062317 0.36807233095169067
0.8451540470123291 0.48599526286125183 0.36630108952522278
0.85050421953201294 0.48341283202171326 0.35913214087486267
0.85337197780609131 0.47915959358215332 0.34732189774513245
0.85546875 0.47373086214065552 0.33224278688430786
0.85968136787414551 0.4685090184211731 0.3177851140499115
0.86865657567977905 0.4653458297252655 0.30903282761573792
0.87840020656585693 0.46200522780418396 0.29974126815795898
0.88827234506607056 0.45785483717918396 0.28819641470909119
0.89892274141311646 0.45314663648605347 0.27509915828704834
0.9108121395111084 0.44810286164283752 0.26106742024421692
0.92422789335250854 0.44290301203727722 0.24660074710845947
0.93931841850280762 0.43768376111984253 0.2320791631937027
0.95612972974777222 0.43254420161247253 0.21777880191802979
0.97466593980789185 0.42772319912910461 0.20438119769096375
0.99481672048568726 0.42440870404243469 0.19521342217922211
0.95480936765670776 0.54556769132614136 0.52824735641479492
0.97347849607467651 0.5484769344329834 0.5380595326423645
0.9856676459312439 0.55047094821929932 0.54464083909988403
0.96801549196243286 0.54704248905181885 0.53343892097473145
0.97805613279342651 0.54879719018936157 0.53908038139343262
0.94577866792678833 0.54233473539352417 0.51742172241210938
0.94195157289505005 0.54118055105209351 0.51339715719223022
0.92176026105880737 0.53630506992340088 0.49739688634872437
0.89147716760635376 0.52876424789428711 0.4726511538028717
0.85771375894546509 0.51983201503753662 0.44300952553749084
0.8262285590171814 0.51062971353530884 0.41241994500160217
0.79891747236251831 0.50158005952835083 0.38234397768974304
0.78164875507354736 0.49433523416519165 0.35810938477516174
0.79273879528045654 0.49430429935455322 0.35789158940315247
0.80533188581466675 0.49466770887374878 0.35910141468048096
