projects/Week3-Starter/res/luts/warms.cube
# Created by: G'MIC (https://gmic.eu)
TITLE "warms"
# LUT size
LUT_3D_SIZE 5
# Data domain
# LUT data points
DOMAIN_MIN 0.000000 0.000000 0.000000
DOMAIN_MAX 0.903226 0.903226 0.903226
0.99999994039535522 0.55294108390808105 0.55294108390808105
0.96491295099258423 0.52824735641479492 0.52824735641479492
0.88314229249954224 0.43655067682266235 0.43652823567390442
0.84475350379943848 0.29276853799819946 0.29276299476623535
0.93148523569107056 0.19077053666114807 0.19076631963253021
0.98477691411972046 0.54812270402908325 0.54464083909988403
0.94425231218338013 0.52967691421508789 0.51339727640151978
0.86626088619232178 0.47416031360626221 0.41971027851104736
0.87588471174240112 0.42973506450653076 0.34486272931098938
0.93709874153137207 0.35598558187484741 0.22038751840591431
0.85105454921722412 0.53791087865829468 0.47120353579521179
0.89221692085266113 0.53895324468612671 0.47652524709701538
0.80392611026763916 0.51694351434707642 0.35771366953849792
0.85023403167724609 0.50668627023696899 0.30199286341667175
0.94037055969238281 0.49477943778038025 0.23779763281345367
0.58676880598068237 0.60366415977478027 0.32596588134765625
0.77459567785263062 0.5886760950088501 0.39332553744316101
0.73383373022079468 0.61209976673126221 0.28801894187927246
0.85976624488830566 0.60537749528884888 0.31796541810035706
0.94392573833465576 0.61910331249237061 0.25643599033355713
0.37382197380065918 0.77004194259643555 0.20895452797412872
0.54063016176223755 0.75820976495742798 0.22772388160228729
0.65457373857498169 0.76986593008041382 0.20915064215660095
0.82775646448135376 0.73500442504882812 0.26440742611885071
0.9393649697303772 0.75519579648971558 0.23240488767623901
0.86117303371429443 0.47656270861625671 0.50786066055297852
0.86555349826812744 0.45768824219703674 0.49666345119476318
0.85422390699386597 0.40776312351226807 0.4670788049697876
0.86831319332122803 0.33221098780632019 0.42227330803871155
0.93703299760818481 0.22000250220298767 0.35577693581581116
0.87596970796585083 0.51269567012786865 0.51254141330718994
0.99999994039535522 0.55294108390808105 0.55294108390808105
0.96773582696914673 0.53385418653488159 0.53385418653488159
0.93656057119369507 0.48991045355796814 0.4898332953453064
0.94859522581100464 0.39188915491104126 0.3918691873550415
0.74421417713165283 0.52711582183837891 0.46975123882293701
0.87767529487609863 0.53702884912490845 0.50175267457962036
0.92474609613418579 0.53915196657180786 0.50862574577331543
0.94570457935333252 0.53626722097396851 0.49898692965507507
0.96391195058822632 0.51763391494750977 0.43981403112411499
0.48387455940246582 0.6162264347076416 0.3849712610244751
0.72048765420913696 0.59715592861175537 0.43572300672531128
0.88311654329299927 0.57903003692626953 0.48401921987533569
0.9852907657623291 0.55855786800384521 0.53835082054138184
0.96710866689682007 0.59184360504150391 0.44982746243476868
0.44311460852622986 0.74600005149841309 0.37170842289924622
0.59506648778915405 0.73387324810028076 0.38308712840080261
0.79721736907958984 0.68026256561279297 0.43335658311843872
0.88186156749725342 0.67786771059036255 0.43577125668525696
0.95103490352630615 0.71638631820678711 0.39953753352165222
0.72219651937484741 0.40022009611129761 0.5248340368270874
0.73855656385421753 0.36776137351989746 0.51881980895996094
0.73816943168640137 0.29227569699287415 0.50489264726638794
0.83378267288208008 0.27444776892662048 0.5016101598739624
0.93557852506637573 0.21240100264549255 0.49013069272041321
0.88506197929382324 0.51560932397842407 0.5414198637008667
0.86861377954483032 0.49775353074073792 0.53582227230072021
0.88489842414855957 0.485007643699646 0.53189486265182495
0.9205431342124939 0.47402960062026978 0.52847963571548462
0.95912879705429077 0.42480465769767761 0.51304143667221069
0.81269550323486328 0.53402918577194214 0.53386783599853516
0.96768194437026978 0.54878801107406616 0.54878801107406616
0.99999994039535522 0.55294108390808105 0.55294108390808105
0.98099571466445923 0.54702520370483398 0.54706364870071411
0.98919588327407837 0.54230529069900513 0.54230529069900513
0.6576048731803894 0.59488099813461304 0.51823920011520386
0.89288145303726196 0.56985318660736084 0.53882819414138794
0.90126729011535645 0.57492506504058838 0.53477269411087036
0.9917406439781189 0.55600374937057495 0.55041664838790894
0.98785525560379028 0.56737935543060303 0.54105997085571289
0.574127197265625 0.70060718059539795 0.50977581739425659
0.76405102014541626 0.658439040184021 0.5220605731010437
0.85642051696777344 0.64307081699371338 0.52666783332824707
0.93741351366043091 0.61902540922164917 0.53364932537078857
0.9718589186668396 0.64680451154708862 0.52540355920791626
0.51005727052688599 0.28371104598045349 0.61298656463623047
0.57741761207580566 0.2537434995174408 0.61978745460510254
0.66436290740966797 0.21884489059448242 0.62756222486495972
0.78360790014266968 0.19046565890312195 0.63388985395431519
0.92910945415496826 0.1783440113067627 0.63657689094543457
0.73188430070877075 0.46570035815238953 0.58570092916488647
0.72845321893692017 0.43898871541023254 0.59591704607009888
0.75050640106201172 0.40579861402511597 0.60840505361557007
0.84636366367340088 0.400482177734375 0.61042696237564087
0.94921320676803589 0.39389041066169739 0.61291664838790894
0.68023663759231567 0.52052909135818481 0.59223729372024536
0.91838878393173218 0.54224848747253418 0.56598037481307983
0.92495787143707275 0.53904265165328979 0.56965887546539307
0.94326573610305786 0.53528076410293579 0.57422614097595215
0.97988760471343994 0.5332111120223999 0.57679241895675659
0.6772385835647583 0.59252983331680298 0.59244698286056519
0.85987520217895508 0.57510823011398315 0.57507985830307007
0.96096330881118774 0.56171995401382446 0.56154549121856689
0.99829953908920288 0.55360215902328491 0.55360215902328491
0.9935876727104187 0.56044089794158936 0.56056100130081177
0.47840970754623413 0.73377776145935059 0.61690562963485718
0.72242480516433716 0.67700093984603882 0.59685653448104858
0.85204696655273438 0.6459471583366394 0.58573204278945923
0.94580775499343872 0.6101841926574707 0.57327061891555786
0.99729430675506592 0.56236106157302856 0.55623710155487061
0.51921868324279785 0.28874066472053528 0.71963071823120117
0.55509334802627563 0.23788852989673615 0.75170809030532837
0.60727524757385254 0.16202674806118011 0.79958659410476685
0.7511516809463501 0.13610619306564331 0.81595945358276367
0.92055195569992065 0.13320435583591461 0.81779253482818604
0.77828681468963623 0.48075875639915466 0.62985324859619141
0.70454537868499756 0.42899230122566223 0.68499094247817993
0.66471469402313232 0.35526582598686218 0.76352769136428833
0.79675477743148804 0.35127618908882141 0.76778149604797363
0.93354189395904541 0.34497392177581787 0.77450138330459595
0.61911016702651978 0.51442742347717285 0.68499094247817993
0.66820985078811646 0.50953638553619385 0.70121139287948608
0.77939355373382568 0.51234626770019531 0.69152802228927612
0.86100089550018311 0.50991654396057129 0.69986796379089355
0.95501625537872314 0.50900954008102417 0.7029871940612793
0.66300559043884277 0.59422814846038818 0.66973555088043213
0.86854588985443115 0.57366669178009033 0.61178511381149292
0.92292732000350952 0.57006192207336426 0.60137641429901123
0.97108376026153564 0.56365823745727539 0.58362060785293579
0.981131911277771 0.57516419887542725 0.61604917049407959
0.54939055442810059 0.7091517448425293 0.70908951759338379
0.79197466373443604 0.64597940444946289 0.64581948518753052
0.94236397743225098 0.58912932872772217 0.58907687664031982
0.98580390214920044 0.56797218322753906 0.56780147552490234
0.99805653095245361 0.55995810031890869 0.55995810031890869
