projects/Assignment 1/res/luts/cools.cube
# Created by: G'MIC (https://gmic.eu)
TITLE "cool"
# LUT size
LUT_3D_SIZE 32
# Data domain
DOMAIN_MIN 0.0 0.0 0.0
DOMAIN_MAX 1.0 1.0 1.0
# LUT data points
0.12497247010469437 0.15797525644302368 0.26484683156013489
0.1372702419757843 0.16123487055301666 0.27742964029312134
0.15289154648780823 0.15811304748058319 0.28136992454528809
0.18122583627700806 0.15985211730003357 0.28075599670410156
0.21461097896099091 0.15542878210544586 0.28200337290763855
0.25128492712974548 0.15420617163181305 0.28205984830856323
0.28465923666954041 0.15612539649009705 0.2813437283039093
0.3215034008026123 0.1614808589220047 0.28137323260307312
0.35307794809341431 0.16402849555015564 0.28194692730903625
0.381786048412323 0.18309880793094635 0.28389135003089905
0.41016793251037598 0.19982703030109406 0.29709956049919128
0.43519508838653564 0.20043548941612244 0.31926831603050232
0.45885586738586426 0.19400885701179504 0.33666330575942993
0.48281008005142212 0.18392904102802277 0.34751659631729126
0.50816595554351807 0.17782387137413025 0.35935014486312866
0.52933591604232788 0.19101664423942566 0.36674013733863831
0.54767143726348877 0.20772536098957062 0.36450502276420593
0.566306471824646 0.22121182084083557 0.35773348808288574
0.58596348762512207 0.23083601891994476 0.34783178567886353
0.6069190502166748 0.23686677217483521 0.33581170439720154
0.62922358512878418 0.23987123370170593 0.32249253988265991
0.65283173322677612 0.24037459492683411 0.3084770143032074
0.67765003442764282 0.23875901103019714 0.29417243599891663
0.70355063676834106 0.23524646461009979 0.27984410524368286
0.73037964105606079 0.22992882132530212 0.26565167307853699
0.75797605514526367 0.22285890579223633 0.25167706608772278
0.78620564937591553 0.2141871303319931 0.23796355724334717
0.81500095129013062 0.20428098738193512 0.22457157075405121
0.84389859437942505 0.19440308213233948 0.21293707191944122
0.87216687202453613 0.18475838005542755 0.20369333028793335
0.89987629652023315 0.17598623037338257 0.19615288078784943
0.92686104774475098 0.16920395195484161 0.18966498970985413
0.12501159310340881 0.19945251941680908 0.26479247212409973
0.1372007429599762 0.20573000609874725 0.27706056833267212
0.15262860059738159 0.20462276041507721 0.28094121813774109
0.18130879104137421 0.19995205104351044 0.28195342421531677
0.21450851857662201 0.19410830736160278 0.28001382946968079
0.24945734441280365 0.1944158524274826 0.27951309084892273
0.28440439701080322 0.20054285228252411 0.28139007091522217
0.32046410441398621 0.20296694338321686 0.28071081638336182
0.35507780313491821 0.20754104852676392 0.28220945596694946
0.38168540596961975 0.20787361264228821 0.28595533967018127
0.40920594334602356 0.20948430895805359 0.29655548930168152
0.43437746167182922 0.21122428774833679 0.31812942028045654
0.45804348587989807 0.20892263948917389 0.33544299006462097
0.48169025778770447 0.20303262770175934 0.34553787112236023
0.50655770301818848 0.19792084395885468 0.35458135604858398
0.5285264253616333 0.20943894982337952 0.3626239001750946
0.54718416929244995 0.2264728844165802 0.36105915904045105
0.566150963306427 0.24062791466712952 0.35480386018753052
0.58614516258239746 0.2512144148349762 0.34528666734695435
0.60741859674453735 0.25837469100952148 0.33356431126594543
0.63000768423080444 0.2625386118888855 0.32048901915550232
0.65384566783905029 0.26409941911697388 0.30669087171554565
0.6788257360458374 0.26334300637245178 0.29259821772575378
0.70482337474822998 0.26047447323799133 0.27848345041275024
0.73170477151870728 0.25566017627716064 0.26450970768928528
0.75933229923248291 0.24916365742683411 0.25087606906890869
0.78719675540924072 0.24238882958889008 0.23955851793289185
0.81479734182357788 0.23532006144523621 0.23080810904502869
0.84197944402694702 0.22687417268753052 0.22269335389137268
0.86943435668945312 0.21684569120407104 0.21361291408538818
0.89704930782318115 0.20745468139648438 0.20511636137962341
0.9240114688873291 0.20016090571880341 0.1978171318769455
0.12530301511287689 0.21625354886054993 0.26531538367271423
0.13742855191230774 0.2228129655122757 0.27757155895233154
0.15263813734054565 0.22402486205101013 0.28135713934898376
0.18136434257030487 0.22317215800285339 0.28245106339454651
0.21557487547397614 0.22093351185321808 0.28037935495376587
0.25068265199661255 0.22019769251346588 0.27758273482322693
0.28828364610671997 0.22415937483310699 0.28150969743728638
0.32149249315261841 0.22471491992473602 0.28145569562911987
0.35436400771141052 0.22411155700683594 0.28269237279891968
0.38074684143066406 0.2223651111125946 0.28687936067581177
0.40640097856521606 0.21823929250240326 0.29060730338096619
0.43227890133857727 0.22020220756530762 0.3112109899520874
0.45662933588027954 0.22061040997505188 0.32935786247253418
0.48075923323631287 0.21876509487628937 0.34015995264053345
0.50558847188949585 0.21773639321327209 0.34839090704917908
0.52761030197143555 0.2293468713760376 0.35481441020965576
0.54662930965423584 0.24545438587665558 0.35265445709228516
0.56606030464172363 0.25940677523612976 0.34635865688323975
0.58658629655838013 0.27113756537437439 0.33779993653297424
0.60837638378143311 0.28002852201461792 0.32707116007804871
0.63140720129013062 0.28590682148933411 0.31482309103012085
0.65559923648834229 0.28899326920509338 0.30171158909797668
0.68082427978515625 0.28946703672409058 0.28820028901100159
0.70677638053894043 0.28911429643630981 0.27654916048049927
0.73313266038894653 0.28758415579795837 0.26691296696662903
0.7596052885055542 0.2840818464756012 0.25903132557868958
0.78634381294250488 0.27715888619422913 0.25079065561294556
0.81287592649459839 0.2686331570148468 0.24268892407417297
0.83957946300506592 0.2585664689540863 0.23335276544094086
0.86684697866439819 0.24802373349666595 0.22347371280193329
0.893929123878479 0.23913030326366425 0.21514493227005005
0.9209752082824707 0.23087616264820099 0.20627424120903015
0.12569801509380341 0.22653850913047791 0.26607704162597656
0.13775798678398132 0.23228837549686432 0.27810162305831909
0.15281465649604797 0.23371674120426178 0.28173002600669861
0.181475430727005 0.23387938737869263 0.28275582194328308
0.21691508591175079 0.23279207944869995 0.28032630681991577
0.25277811288833618 0.23029689490795135 0.27459049224853516
0.29141682386398315 0.23403213918209076 0.28159192204475403
0.32391294836997986 0.23404295742511749 0.28166922926902771
0.35405221581459045 0.23371712863445282 0.28266039490699768
0.38185390830039978 0.23296205699443817 0.28592991828918457
0.40952086448669434 0.23474407196044922 0.29715639352798462
0.4347795844078064 0.23797264695167542 0.31809729337692261
0.45872986316680908 0.23927359282970428 0.33475580811500549
0.48269417881965637 0.23875077068805695 0.34451061487197876
0.50755703449249268 0.24030399322509766 0.35288098454475403
0.52896130084991455 0.25327238440513611 0.35727131366729736
0.54775786399841309 0.26915058493614197 0.35327282547950745
0.56710797548294067 0.2831616997718811 0.34551507234573364
0.5876997709274292 0.2948937714099884 0.3351864218711853
0.60977661609649658 0.30443400144577026 0.32309705018997192
0.6332886815071106 0.31182226538658142 0.30990141630172729
0.65780991315841675 0.31912758946418762 0.29964080452919006
0.68259841203689575 0.32629764080047607 0.29402166604995728
0.70766925811767578 0.3286336362361908 0.28773966431617737
0.7330518364906311 0.32571035623550415 0.2802177369594574
0.75882655382156372 0.31856906414031982 0.27166268229484558
0.78486859798431396 0.30954819917678833 0.26297572255134583
0.81089359521865845 0.29978111386299133 0.25396713614463806
0.83743810653686523 0.28901571035385132 0.24373190104961395
0.86431014537811279 0.27890393137931824 0.23415358364582062
0.89083868265151978 0.27021753787994385 0.22545340657234192
0.91769760847091675 0.26158872246742249 0.21543721854686737
0.12512485682964325 0.23770247399806976 0.26495680212974548
0.13747681677341461 0.24255889654159546 0.27742186188697815
0.15320670604705811 0.24376115202903748 0.28148692846298218
0.1816384494304657 0.24392381310462952 0.28199639916419983
0.21688657999038696 0.24305714666843414 0.2789454460144043
0.25338110327720642 0.24113763868808746 0.27415522933006287
0.29281491041183472 0.24401527643203735 0.28160497546195984
0.3259081244468689 0.24380317330360413 0.28150540590286255
0.35572865605354309 0.24357986450195312 0.28259935975074768
0.38325947523117065 0.24332244694232941 0.28597202897071838
0.41100329160690308 0.24766799807548523 0.29829344153404236
0.43670743703842163 0.25461405515670776 0.31839540600776672
0.46092778444290161 0.25863265991210938 0.33383277058601379
0.48487240076065063 0.2597956657409668 0.34270393848419189
0.50962406396865845 0.26244199275970459 0.35060110688209534
0.53114253282546997 0.27695265412330627 0.35479274392127991
0.55013948678970337 0.29481840133666992 0.35107454657554626
0.56968206167221069 0.31100177764892578 0.34375640749931335
0.59041893482208252 0.3248913586139679 0.33380633592605591
0.61259782314300537 0.33700332045555115 0.3227565586566925
0.63611596822738647 0.3514028787612915 0.31679907441139221
0.66000467538833618 0.36340406537055969 0.31354287266731262
0.68399292230606079 0.36793938279151917 0.30824130773544312
0.70819705724716187 0.36605334281921387 0.30131411552429199
0.73277562856674194 0.35934486985206604 0.29295197129249573
0.75797992944717407 0.34988051652908325 0.28362905979156494
0.78347289562225342 0.33997169137001038 0.27461728453636169
0.80923217535018921 0.32944026589393616 0.26477739214897156
0.83569175004959106 0.31846326589584351 0.25413507223129272
0.86187011003494263 0.30924773216247559 0.24525599181652069
0.8880150318145752 0.3002839982509613 0.23548488318920135
0.91467422246932983 0.29144260287284851 0.22447292506694794
0.1252947598695755 0.24942392110824585 0.2653529942035675
0.13768027722835541 0.25334838032722473 0.27784821391105652
0.15347668528556824 0.25431519746780396 0.28183314204216003
0.18162725865840912 0.25438472628593445 0.28122398257255554
0.21582965552806854 0.25466635823249817 0.28167253732681274
0.25199383497238159 0.25308197736740112 0.27731963992118835
0.29049685597419739 0.25466763973236084 0.28305321931838989
0.32537305355072021 0.25439053773880005 0.28349092602729797
0.35544872283935547 0.25385108590126038 0.28375512361526489
0.38192194700241089 0.25314146280288696 0.28563258051872253
0.4082186222076416 0.25484851002693176 0.29073271155357361
0.43497490882873535 0.26338586211204529 0.31005454063415527
0.46059459447860718 0.27187478542327881 0.32615882158279419
0.48608627915382385 0.27813422679901123 0.33545985817909241
0.51194941997528076 0.28717559576034546 0.34473130106925964
0.53322303295135498 0.30525383353233337 0.34800314903259277
0.55256479978561401 0.32440185546875 0.34510397911071777
0.57238525152206421 0.34222063422203064 0.33844479918479919
0.59367287158966064 0.36000010371208191 0.33198681473731995
0.61653584241867065 0.38105529546737671 0.33228510618209839
0.63949400186538696 0.39782771468162537 0.331685870885849
0.66235882043838501 0.4055769145488739 0.32801580429077148
0.68530648946762085 0.40542274713516235 0.32220366597175598
0.70857203006744385 0.39950317144393921 0.3144652247428894
0.73248749971389771 0.39011532068252563 0.30519452691078186
0.75725990533828735 0.37922400236129761 0.29520115256309509
0.78241854906082153 0.36860370635986328 0.28560552000999451
0.80814462900161743 0.35764944553375244 0.27507469058036804
0.83421051502227783 0.34748309850692749 0.2650718092918396
0.85966932773590088 0.33853885531425476 0.2558312714099884
0.88546496629714966 0.32933095097541809 0.24489684402942657
0.91193842887878418 0.32035619020462036 0.23290182650089264
0.12564155459403992 0.25987064838409424 0.26593413949012756
0.13790373504161835 0.26280298829078674 0.27810251712799072
0.15358510613441467 0.26357495784759521 0.2818358838558197
0.18164920806884766 0.2635975182056427 0.28093084692955017
0.21427741646766663 0.2639070451259613 0.28189292550086975
0.2489468902349472 0.26312053203582764 0.27931046485900879
0.28576064109802246 0.26367571949958801 0.2828708291053772
0.32116448879241943 0.26350033283233643 0.2838364839553833
0.35374507308006287 0.26258224248886108 0.28413715958595276
0.38189837336540222 0.261403888463974 0.2846834659576416
0.41011866927146912 0.26767244935035706 0.29439729452133179
0.43667849898338318 0.2840743362903595 0.31306374073028564
0.46200293302536011 0.30208829045295715 0.32634314894676208
0.48706623911857605 0.32037320733070374 0.33135846257209778
0.51211166381835938 0.33595216274261475 0.33413046598434448
0.53475666046142578 0.34667637944221497 0.3366202712059021
0.55560207366943359 0.36486357450485229 0.33846402168273926
0.57643461227416992 0.38696563243865967 0.34019896388053894
0.59844613075256348 0.40863931179046631 0.34315440058708191
0.62107592821121216 0.42825564742088318 0.3463599681854248
0.64300239086151123 0.44059798121452332 0.34598660469055176
0.66465157270431519 0.44315779209136963 0.34211403131484985
0.68650650978088379 0.43852734565734863 0.33567643165588379
0.70895618200302124 0.42952686548233032 0.32703563570976257
0.732383131980896 0.41832363605499268 0.31686592102050781
0.75692594051361084 0.40649360418319702 0.30604761838912964
0.78204399347305298 0.39553654193878174 0.29580733180046082
0.80774992704391479 0.38484805822372437 0.28505268692970276
0.83289730548858643 0.37586414813995361 0.27596727013587952
0.85774523019790649 0.36665052175521851 0.26541706919670105
0.88321250677108765 0.3573438823223114 0.25335356593132019
0.90953052043914795 0.34833914041519165 0.24043640494346619
0.12512372434139252 0.27109581232070923 0.26450920104980469
0.13749074935913086 0.27307817339897156 0.27705273032188416
0.15345205366611481 0.2736060619354248 0.28120878338813782
0.18182703852653503 0.27361121773719788 0.28060558438301086
0.21340072154998779 0.2739165723323822 0.28215986490249634
0.24659009277820587 0.27351585030555725 0.28175356984138489
0.28046140074729919 0.27243587374687195 0.2753957211971283
0.31774753332138062 0.27432394027709961 0.28228211402893066
0.35250860452651978 0.27296933531761169 0.28331217169761658
0.38344332575798035 0.27012437582015991 0.28301054239273071
0.41350698471069336 0.29167559742927551 0.29345154762268066
0.44034713506698608 0.34229803085327148 0.30853232741355896
0.46558740735054016 0.38898521661758423 0.31887862086296082
0.49094045162200928 0.41385716199874878 0.32733374834060669
0.51495146751403809 0.40701207518577576 0.32882189750671387
0.54014259576797485 0.39719542860984802 0.33558350801467896
0.56165027618408203 0.41643667221069336 0.34350207448005676
0.58230936527252197 0.43911942839622498 0.34940555691719055
0.60372024774551392 0.45819631218910217 0.35447981953620911
0.62538552284240723 0.47054025530815125 0.35766240954399109
0.64632368087768555 0.47668337821960449 0.35841077566146851
0.66679251194000244 0.47447153925895691 0.35458239912986755
0.68774873018264771 0.46657165884971619 0.34753558039665222
0.70967131853103638 0.45576125383377075 0.33815580606460571
0.73289138078689575 0.44378888607025146 0.32730871438980103
0.7574305534362793 0.43183973431587219 0.31587573885917664
0.78260546922683716 0.42107725143432617 0.30505755543708801
0.807731032371521 0.4116077721118927 0.29511553049087524
0.83181709051132202 0.40290448069572449 0.28553888201713562
0.85618209838867188 0.39355263113975525 0.27372720837593079
0.88140314817428589 0.38428610563278198 0.26069015264511108
0.90760970115661621 0.37535622715950012 0.24697203934192657
0.12531593441963196 0.28317552804946899 0.26407730579376221
0.13747952878475189 0.28423050045967102 0.27668255567550659
0.15311327576637268 0.28452962636947632 0.28079378604888916
0.18159183859825134 0.28454723954200745 0.28042477369308472
0.21307733654975891 0.2846643328666687 0.28149542212486267
0.24696539342403412 0.28603607416152954 0.28240039944648743
0.28065183758735657 0.28854268789291382 0.27611565589904785
0.31728392839431763 0.29031670093536377 0.28069847822189331
0.35346850752830505 0.30163541436195374 0.28249275684356689
0.38718229532241821 0.3270677924156189 0.28148239850997925
0.41995283961296082 0.39493978023529053 0.28829783201217651
0.44653612375259399 0.46809116005897522 0.29987248778343201
0.4720723032951355 0.51079750061035156 0.31392446160316467
0.49666279554367065 0.49564528465270996 0.32198294997215271
0.52205526828765869 0.45356574654579163 0.32508659362792969
0.5480189323425293 0.44800242781639099 0.33576825261116028
0.56890779733657837 0.46906724572181702 0.34592330455780029
0.58877146244049072 0.49009767174720764 0.35500988364219666
0.60865551233291626 0.50215011835098267 0.36214759945869446
0.62882643938064575 0.50497192144393921 0.36630365252494812
0.64904689788818359 0.50414979457855225 0.3679104745388031
0.66886371374130249 0.49913120269775391 0.36474612355232239
0.68938374519348145 0.48990333080291748 0.35743409395217896
0.71116602420806885 0.47877967357635498 0.34768840670585632
0.73439818620681763 0.46706598997116089 0.3363945484161377
0.75896424055099487 0.45561480522155762 0.324358731508255
0.78396111726760864 0.44562903046607971 0.31327372789382935
0.80780273675918579 0.43746766448020935 0.30432090163230896
0.83110380172729492 0.42853730916976929 0.29334419965744019
0.85514670610427856 0.41928371787071228 0.28056040406227112
0.8801993727684021 0.41018787026405334 0.26674801111221313
0.90631765127182007 0.40143638849258423 0.25236546993255615
0.12614123523235321 0.2951892614364624 0.26517203450202942
0.13820566236972809 0.29533860087394714 0.27755126357078552
0.15361236035823822 0.29545590281486511 0.28177022933959961
0.18172882497310638 0.29550400376319885 0.28111532330513
0.21268345415592194 0.29556357860565186 0.28127220273017883
0.24715664982795715 0.29842346906661987 0.28150993585586548
0.28426864743232727 0.30682820081710815 0.28059867024421692
0.31920579075813293 0.33830377459526062 0.27941051125526428
0.35524186491966248 0.35493990778923035 0.28230920433998108
0.38801887631416321 0.38935756683349609 0.27930483222007751
0.42345553636550903 0.51734930276870728 0.28234931826591492
0.45254397392272949 0.59561556577682495 0.28987666964530945
0.47771391272544861 0.58973973989486694 0.30200222134590149
0.50406581163406372 0.51877421140670776 0.312705397605896
0.5309135913848877 0.47610488533973694 0.31857460737228394
0.55683761835098267 0.49747127294540405 0.32909965515136719
0.57675474882125854 0.52056622505187988 0.342927485704422
0.59471726417541504 0.53367328643798828 0.35644948482513428
0.61248689889907837 0.53464514017105103 0.36662128567695618
0.6312330961227417 0.52959185838699341 0.37226167321205139
0.65114879608154297 0.52355492115020752 0.37398543953895569
0.67125177383422852 0.51785856485366821 0.37197452783584595
0.6918671727180481 0.50941640138626099 0.3650774359703064
0.71372300386428833 0.49924471974372864 0.35523796081542969
0.73696404695510864 0.48850318789482117 0.34354448318481445
0.76146256923675537 0.47808894515037537 0.33108916878700256
0.78541004657745361 0.47010156512260437 0.32169419527053833
0.80803537368774414 0.46180963516235352 0.31139209866523743
0.83094668388366699 0.45290142297744751 0.29918095469474792
0.85477006435394287 0.44393318891525269 0.28568416833877563
0.87968540191650391 0.43512654304504395 0.27127751708030701
0.90571713447570801 0.42665547132492065 0.25638023018836975
0.12556187808513641 0.30766284465789795 0.26436829566955566
0.13778762519359589 0.30686479806900024 0.27705690264701843
0.1535382866859436 0.30671322345733643 0.28157907724380493
0.18176940083503723 0.30673378705978394 0.28105142712593079
0.21367602050304413 0.30702066421508789 0.28135389089584351
0.24974590539932251 0.31515485048294067 0.28109702467918396
0.28751212358474731 0.34430158138275146 0.28201392292976379
0.32204294204711914 0.44074854254722595 0.28188258409500122
0.35616713762283325 0.43492919206619263 0.28224155306816101
0.38806807994842529 0.36990305781364441 0.2817980945110321
0.41945648193359375 0.43209290504455566 0.28123855590820312
0.45170170068740845 0.58195358514785767 0.2803313136100769
0.48326012492179871 0.58588999509811401 0.28805422782897949
0.51138317584991455 0.48208722472190857 0.30057674646377563
0.53909754753112793 0.47684520483016968 0.30622184276580811
0.56512796878814697 0.5397072434425354 0.31720224022865295
0.58329516649246216 0.56023383140563965 0.33675438165664673
0.59887444972991943 0.56024914979934692 0.35557299852371216
0.61514121294021606 0.55317360162734985 0.36839208006858826
0.63324463367462158 0.54508870840072632 0.37515920400619507
0.6532214879989624 0.53765428066253662 0.37727969884872437
0.67411321401596069 0.53217023611068726 0.3755764365196228
0.6952362060546875 0.5259672999382019 0.36962476372718811
0.71719175577163696 0.51757258176803589 0.35991126298904419
0.74040889739990234 0.5083000659942627 0.34804564714431763
0.76437705755233765 0.50019919872283936 0.33727222681045532
0.78664577007293701 0.493467777967453 0.32866862416267395
0.80858767032623291 0.48501333594322205 0.31665712594985962
0.83137935400009155 0.47614333033561707 0.30302783846855164
0.85507881641387939 0.46750080585479736 0.28884902596473694
0.87986409664154053 0.45909038186073303 0.27403831481933594
0.90580451488494873 0.45100179314613342 0.25880104303359985
0.12522892653942108 0.32059967517852783 0.26387307047843933
0.13740217685699463 0.3187679648399353 0.27658501267433167
0.15308173000812531 0.31829577684402466 0.28100204467773438
0.18147891759872437 0.31822839379310608 0.28073081374168396
0.21511361002922058 0.31917119026184082 0.28131848573684692
0.25268450379371643 0.33338391780853271 0.28076040744781494
0.28730008006095886 0.40785810351371765 0.27961605787277222
0.32176390290260315 0.5133514404296875 0.28018379211425781
0.35361450910568237 0.47915640473365784 0.28131237626075745
0.38970920443534851 0.42578151822090149 0.28089398145675659
0.42147046327590942 0.4162517786026001 0.28098061680793762
0.45300760865211487 0.51597106456756592 0.28005048632621765
0.48621872067451477 0.52038848400115967 0.28195959329605103
0.51474982500076294 0.42062902450561523 0.28808337450027466
0.54291480779647827 0.46680763363838196 0.29324197769165039
0.56883114576339722 0.55602931976318359 0.30702337622642517
0.58601319789886475 0.57084518671035767 0.33119404315948486
0.60102146863937378 0.56655740737915039 0.35255596041679382
0.61716979742050171 0.55962669849395752 0.36667302250862122
0.63530099391937256 0.55308365821838379 0.37417486310005188
0.65538561344146729 0.54706341028213501 0.37657329440116882
0.67678284645080566 0.54272091388702393 0.37533038854598999
0.69864004850387573 0.53878301382064819 0.36980047821998596
0.72104871273040771 0.53328311443328857 0.3608517050743103
0.74437093734741211 0.52654725313186646 0.34993481636047363
0.76705938577651978 0.52145302295684814 0.34231612086296082
0.78812211751937866 0.51481163501739502 0.33241689205169678
0.80966669321060181 0.50677132606506348 0.3196215033531189
0.83225136995315552 0.49827852845191956 0.3052564263343811
0.85596686601638794 0.4898180365562439 0.29013079404830933
0.8806341290473938 0.4819166362285614 0.27519452571868896
0.90621441602706909 0.47468134760856628 0.26060482859611511
0.12543898820877075 0.33323141932487488 0.26412150263786316
0.13763152062892914 0.33042001724243164 0.27680173516273499
0.15334275364875793 0.32965502142906189 0.28143799304962158
0.18160012364387512 0.32924291491508484 0.28104859590530396
0.21393583714962006 0.33636456727981567 0.28144124150276184
0.25187915563583374 0.39308655261993408 0.28060239553451538
0.28688278794288635 0.46229314804077148 0.28118306398391724
0.32421895861625671 0.52685058116912842 0.28135749697685242
0.35476458072662354 0.49043869972229004 0.28090953826904297
0.38939684629440308 0.53875571489334106 0.28138872981071472
0.42444521188735962 0.54416376352310181 0.28041207790374756
0.45247888565063477 0.51521068811416626 0.28035339713096619
0.48521649837493896 0.44046440720558167 0.27996671199798584
0.51614481210708618 0.39694786071777344 0.28791302442550659
0.5405585765838623 0.45605441927909851 0.29058212041854858
