projects/Assignment 1/res/luts/cools.cube
# Created by: G'MIC (https://gmic.eu)
TITLE "cool"
# LUT size
LUT_3D_SIZE 5
# Data domain
# LUT data points
DOMAIN_MIN 0.000000 0.000000 0.000000
DOMAIN_MAX 0.903226 0.903226 0.903226
0.12497247010469437 0.15797525644302368 0.26484683156013489
0.3215034008026123 0.1614808589220047 0.28137323260307312
0.50816595554351807 0.17782387137413025 0.35935014486312866
0.65283173322677612 0.24037459492683411 0.3084770143032074
0.84389859437942505 0.19440308213233948 0.21293707191944122
0.12512372434139252 0.27109581232070923 0.26450920104980469
0.31774753332138062 0.27432394027709961 0.28228211402893066
0.51495146751403809 0.40701207518577576 0.32882189750671387
0.66679251194000244 0.47447153925895691 0.35458239912986755
0.83181709051132202 0.40290448069572449 0.28553888201713562
0.12507683038711548 0.36073678731918335 0.26455894112586975
0.32475224137306213 0.52590948343276978 0.28211265802383423
0.54298263788223267 0.50039058923721313 0.29165524244308472
0.67995935678482056 0.54288738965988159 0.35399791598320007
0.83470809459686279 0.55984491109848022 0.31739774346351624
0.12493908405303955 0.48799988627433777 0.26331236958503723
0.31602960824966431 0.48243734240531921 0.27683001756668091
0.53163063526153564 0.4955909252166748 0.32555070519447327
0.69448435306549072 0.54217064380645752 0.37373459339141846
0.82446748018264771 0.62935125827789307 0.31294628977775574
0.087544195353984833 0.67232429981231689 0.17849397659301758
0.27699342370033264 0.67568707466125488 0.18154770135879517
0.49444389343261719 0.67839914560317993 0.22871379554271698
0.67871266603469849 0.703513503074646 0.26510193943977356
0.83354729413986206 0.76580864191055298 0.23233047127723694
0.17459136247634888 0.18330854177474976 0.49229452013969421
0.34871393442153931 0.21111011505126953 0.52154314517974854
0.54736512899398804 0.26351797580718994 0.56790256500244141
0.67691272497177124 0.2998124361038208 0.48673027753829956
0.84309494495391846 0.26024901866912842 0.4494909942150116
0.18393729627132416 0.29719012975692749 0.49256739020347595
0.33120909333229065 0.30330687761306763 0.58405029773712158
0.54877185821533203 0.36045709252357483 0.60342657566070557
0.69326597452163696 0.57761025428771973 0.60465246438980103
0.8229362964630127 0.4665810763835907 0.5439189076423645
0.16331392526626587 0.37416946887969971 0.52996766567230225
0.33456450700759888 0.33686065673828125 0.6535910964012146
0.55575001239776611 0.51674246788024902 0.64362293481826782
0.71835213899612427 0.64208567142486572 0.62808036804199219
0.81947052478790283 0.62658071517944336 0.56197082996368408
0.14045676589012146 0.47282382845878601 0.56704568862915039
0.3263128399848938 0.46155595779418945 0.60342037677764893
0.54698967933654785 0.46241763234138489 0.61642301082611084
0.70504212379455566 0.53035485744476318 0.57484167814254761
0.8338245153427124 0.71190524101257324 0.57305347919464111
0.10159795731306076 0.66645544767379761 0.41451162099838257
0.28945460915565491 0.66404819488525391 0.42624291777610779
0.50285476446151733 0.67014753818511963 0.44874528050422668
0.68385732173919678 0.69951754808425903 0.46057125926017761
0.84391182661056519 0.79553622007369995 0.45293289422988892
0.18386858701705933 0.19443695247173309 0.57113641500473022
0.347291499376297 0.22257295250892639 0.60076087713241577
0.51951754093170166 0.27961498498916626 0.64346051216125488
0.7050812840461731 0.30935689806938171 0.6540568470954895
0.86812812089920044 0.31974419951438904 0.65451794862747192
0.19678623974323273 0.32916727662086487 0.60330760478973389
0.3629901111125946 0.38558593392372131 0.65407258272171021
0.5531427264213562 0.54166805744171143 0.7884138822555542
0.73163944482803345 0.59638869762420654 0.81642132997512817
0.8552824854850769 0.58796703815460205 0.79018211364746094
0.19660110771656036 0.45414528250694275 0.62767183780670166
0.37926676869392395 0.48968473076820374 0.73723423480987549
0.56125712394714355 0.56939142942428589 0.89265429973602295
0.74658280611038208 0.57096093893051147 0.89069443941116333
0.85456728935241699 0.67423206567764282 0.80467283725738525
0.19742514193058014 0.55249261856079102 0.6606900691986084
0.35349369049072266 0.49335131049156189 0.80776959657669067
0.54135948419570923 0.52809256315231323 0.78548061847686768
0.72899103164672852 0.64633637666702271 0.78072226047515869
0.86387109756469727 0.81607556343078613 0.79961091279983521
0.1481747031211853 0.72456181049346924 0.59513550996780396
0.31322795152664185 0.68215525150299072 0.64763414859771729
0.50735121965408325 0.70088589191436768 0.64789265394210815
0.70569640398025513 0.75438517332077026 0.65307766199111938
0.86976486444473267 0.864155113697052 0.65230512619018555
0.14074310660362244 0.15146534144878387 0.72582942247390747
0.34468761086463928 0.21654300391674042 0.76025229692459106
0.52856439352035522 0.30158022046089172 0.79935580492019653
0.70845937728881836 0.34405142068862915 0.80877631902694702
0.87503451108932495 0.33972570300102234 0.8032117486000061
0.1680590808391571 0.33929300308227539 0.74648326635360718
0.39223167300224304 0.42012092471122742 0.80205464363098145
0.57349258661270142 0.5493205189704895 0.8832288384437561
0.73278570175170898 0.63521343469619751 0.91466981172561646
0.86672466993331909 0.61591339111328125 0.89390856027603149
0.18773819506168365 0.49086931347846985 0.76602047681808472
0.38642653822898865 0.51875150203704834 0.8224148154258728
0.53982669115066528 0.58269894123077393 0.87045544385910034
0.74726128578186035 0.81129717826843262 0.97275429964065552
0.8664507269859314 0.76492094993591309 0.932880699634552
0.17507931590080261 0.60844564437866211 0.76423883438110352
0.34565365314483643 0.59026503562927246 0.80298560857772827
0.51408696174621582 0.6474759578704834 0.81085002422332764
0.73241102695465088 0.76569759845733643 0.89514201879501343
0.86787492036819458 0.82158029079437256 0.90995281934738159
0.1380588710308075 0.77445721626281738 0.74333202838897705
0.30840077996253967 0.74683201313018799 0.76191341876983643
0.49681481719017029 0.78699004650115967 0.76187247037887573
0.70984154939651489 0.84040850400924683 0.79996746778488159
0.87550711631774902 0.87878435850143433 0.81042420864105225
0.11444082856178284 0.12397274374961853 0.90476775169372559
0.33106157183647156 0.18290193378925323 0.91078591346740723
0.52588856220245361 0.25341925024986267 0.92032653093338013
0.7044757604598999 0.28699779510498047 0.92625856399536133
0.87492889165878296 0.27214279770851135 0.92279434204101562
0.13742803037166595 0.32011523842811584 0.90653622150421143
0.35418146848678589 0.37192386388778687 0.91379684209823608
0.55092191696166992 0.45788982510566711 0.92897450923919678
0.72339564561843872 0.53914302587509155 0.94430232048034668
0.86627161502838135 0.52075546979904175 0.93887799978256226
0.13715329766273499 0.48277467489242554 0.90481060743331909
0.33517622947692871 0.49952739477157593 0.91001194715499878
0.52537894248962402 0.54999011754989624 0.92199146747589111
0.73016732931137085 0.67060750722885132 0.95237946510314941
0.86849939823150635 0.71429985761642456 0.95900875329971313
0.12197097390890121 0.63857185840606689 0.90214365720748901
0.30659094452857971 0.63106143474578857 0.90505814552307129
0.51127034425735474 0.67021334171295166 0.91677957773208618
0.72223550081253052 0.74298101663589478 0.94266074895858765
0.8685954213142395 0.81426948308944702 0.9682500958442688
0.10080041736364365 0.81792545318603516 0.90067082643508911
0.28648102283477783 0.8056718111038208 0.90234023332595825
0.49597984552383423 0.82405328750610352 0.91131794452667236
0.7048335075378418 0.85018831491470337 0.92676669359207153
0.87576806545257568 0.87663102149963379 0.93821877241134644
