projects/Assignment 1/res/luts/warm.cube
# Created by: G'MIC (https://gmic.eu)
TITLE "warm"
# LUT size
LUT_3D_SIZE 32
# Data domain
DOMAIN_MIN 0.0 0.0 0.0
DOMAIN_MAX 1.0 1.0 1.0
# LUT data points
0.049761462956666946 0.0083468696102499962 0.0084322858601808548
0.19359616935253143 0.00019982582307420671 0.00025666988221928477
0.31496784090995789 9.5099341706372797e-005 0.00019657758821267635
0.39818695187568665 0.00048495744704268873 0.00021040785941295326
0.4637107253074646 0.0037219382356852293 0.00070684897946193814
0.52661401033401489 0.010500055737793446 0.002007598988711834
0.56912523508071899 0.019672207534313202 0.0035977398511022329
0.6242937445640564 0.010508829727768898 0.0019396498100832105
0.65274077653884888 0.0038479303475469351 0.00095246604178100824
0.68429839611053467 0.015932455658912659 0.003031174885109067
0.71309065818786621 0.06091640517115593 0.012845772318542004
0.71444994211196899 0.093588247895240784 0.023798225447535515
0.70527362823486328 0.11909125000238419 0.028879892081022263
0.71451497077941895 0.14099560678005219 0.031093670055270195
0.73096352815628052 0.15064536035060883 0.047625906765460968
0.73960191011428833 0.14925691485404968 0.071247510612010956
0.74444597959518433 0.14271904528141022 0.094237267971038818
0.7577434778213501 0.13749933242797852 0.11726884543895721
0.77910023927688599 0.13551370799541473 0.14139312505722046
0.79616022109985352 0.13416145741939545 0.15738563239574432
0.80993044376373291 0.13717356324195862 0.16061332821846008
0.82145035266876221 0.14003363251686096 0.15816977620124817
0.83229923248291016 0.14118918776512146 0.15312696993350983
0.84373331069946289 0.14049534499645233 0.14650355279445648
0.85652971267700195 0.13817663490772247 0.13886372745037079
0.87115675210952759 0.13470414280891418 0.13067349791526794
0.88791048526763916 0.13063542544841766 0.12234840542078018
0.90709108114242554 0.12718924880027771 0.11508629471063614
0.92670434713363647 0.12545773386955261 0.1111714169383049
0.94460868835449219 0.12195475399494171 0.10728995501995087
0.96263790130615234 0.11743274331092834 0.10306946188211441
0.9815593957901001 0.11230825632810593 0.098557017743587494
0.06807950884103775 0.046614721417427063 0.016107384115457535
0.2093011736869812 0.0016555199399590492 0
0.32665836811065674 0.001981155714020133 0
0.40595272183418274 0.0034449733793735504 0
0.47879254817962646 0.013820067048072815 0.00019072082068305463
0.53799760341644287 0.029475787654519081 0.00050116825150325894
0.57773786783218384 0.040390618145465851 0.0016206945292651653
0.6141127347946167 0.043417509645223618 0.0022445414215326309
0.65039604902267456 0.049158331006765366 0.0029064442496746778
0.68873447179794312 0.057130683213472366 0.004318620078265667
0.7240937352180481 0.077835656702518463 0.0087554715573787689
0.71523678302764893 0.10600707679986954 0.018516922369599342
0.71763348579406738 0.13049395382404327 0.022106172516942024
0.73886686563491821 0.15538294613361359 0.026268452405929565
0.75190830230712891 0.1642557829618454 0.046181797981262207
0.75643593072891235 0.1648135781288147 0.073599837720394135
0.75802785158157349 0.16072678565979004 0.098738402128219604
0.76454830169677734 0.15276908874511719 0.11942929029464722
0.78529047966003418 0.15009894967079163 0.14274880290031433
0.80226665735244751 0.14888083934783936 0.15819412469863892
0.81532967090606689 0.15199765563011169 0.16068075597286224
0.82589274644851685 0.15490373969078064 0.15792618691921234
0.83593279123306274 0.15647076070308685 0.15291719138622284
0.84682971239089966 0.15648415684700012 0.14648786187171936
0.85936570167541504 0.15508051216602325 0.13911987841129303
0.87400996685028076 0.15281654894351959 0.13140012323856354
0.8914305567741394 0.1507282555103302 0.12441737949848175
0.91135436296463013 0.15075606107711792 0.12088482826948166
0.92924094200134277 0.1489136666059494 0.11714516580104828
0.94598394632339478 0.14534406363964081 0.11280819773674011
0.96309459209442139 0.14086028933525085 0.10810348391532898
0.98131006956100464 0.13584846258163452 0.10309533029794693
0.0530838742852211 0.14412687718868256 0.00014117042883299291
0.21591296792030334 0.064528889954090118 0.0002356963959755376
0.32952511310577393 0.048463691025972366 0
0.40929025411605835 0.053862962871789932 8.1176105595659465e-005
0.46764898300170898 0.058938197791576385 8.1782396591734141e-005
0.53939265012741089 0.07677285373210907 0
0.59234338998794556 0.094850927591323853 0.00016935686289798468
0.62866812944412231 0.10419304668903351 0.00062605517450720072
0.65497440099716187 0.1068078801035881 0.0018718302017077804
0.68886446952819824 0.11673492193222046 0.0061863362789154053
0.70804142951965332 0.12798979878425598 0.011285660788416862
0.70816189050674438 0.13308808207511902 0.013715870678424835
0.73748058080673218 0.14448826014995575 0.011362813413143158
0.76409882307052612 0.16442127525806427 0.015827305614948273
0.77270060777664185 0.17669251561164856 0.043191518634557724
0.77350562810897827 0.1854008287191391 0.077499888837337494
0.76999849081039429 0.18276530504226685 0.10138673335313797
0.77059787511825562 0.17620028555393219 0.11397828161716461
0.7903677225112915 0.17556796967983246 0.12552864849567413
0.80776339769363403 0.17481978237628937 0.13805130124092102
0.82060098648071289 0.17753545939922333 0.14038343727588654
0.83070540428161621 0.17973418533802032 0.13928322494029999
0.84033960103988647 0.180279940366745 0.13732923567295074
0.85102605819702148 0.17907024919986725 0.13493555784225464
0.86370700597763062 0.17645464837551117 0.13280771672725677
0.87912440299987793 0.1733672022819519 0.13093426823616028
0.89815449714660645 0.17298313975334167 0.12953668832778931
0.91632968187332153 0.1727144867181778 0.1268894225358963
0.9322969913482666 0.17046602070331573 0.12277443706989288
0.94773787260055542 0.16690443456172943 0.11800405383110046
0.96391129493713379 0.16258798539638519 0.11283282190561295
0.98144465684890747 0.15783171355724335 0.10733135044574738
0.066560998558998108 0.200855553150177 0.00015229418931994587
0.23129543662071228 0.12884660065174103 0.00032648188062012196
0.30385464429855347 0.10078294575214386 0.00016210135072469711
0.39939084649085999 0.1022413894534111 1.508491891399899e-007
0.47960203886032104 0.12681110203266144 0.00030934376991353929
0.54652905464172363 0.13159671425819397 5.2073111874051392e-005
0.59683531522750854 0.1456148773431778 6.4814012148417532e-005
0.63349306583404541 0.1566040962934494 2.6954160148306983e-006
0.66595274209976196 0.16243459284305573 0.00024358613882213831
0.69769740104675293 0.16714102029800415 0.0021399625111371279
0.71169495582580566 0.16881479322910309 0.0062134014442563057
0.71327757835388184 0.17407554388046265 0.013064880855381489
0.74707180261611938 0.17834468185901642 0.0085657071322202682
0.78834593296051025 0.18390160799026489 0.0059919646009802818
0.79105478525161743 0.20568189024925232 0.049102913588285446
0.78409236669540405 0.21394428610801697 0.080004915595054626
0.77573615312576294 0.21201704442501068 0.098261043429374695
0.78278416395187378 0.21044495701789856 0.096358902752399445
0.80799484252929688 0.21319390833377838 0.097832329571247101
0.82534873485565186 0.21309244632720947 0.10835893452167511
0.83584922552108765 0.21519953012466431 0.11072199791669846
0.8430829644203186 0.21523673832416534 0.11306645721197128
0.85040831565856934 0.21230660378932953 0.11753824353218079
0.85961282253265381 0.20706737041473389 0.12262911349534988
0.87135326862335205 0.20016089081764221 0.1281263679265976
0.88699817657470703 0.19432519376277924 0.13330821692943573
0.90560102462768555 0.19335158169269562 0.13536687195301056
0.92144495248794556 0.1924300491809845 0.13243898749351501
0.93559634685516357 0.19003492593765259 0.1279446929693222
0.94979619979858398 0.1866602897644043 0.12278247624635696
0.9651104211807251 0.18268817663192749 0.11717217415571213
0.98201310634613037 0.17835359275341034 0.11119608581066132
0.055828269571065903 0.25022366642951965 0.00016234205395448953
0.24892985820770264 0.20686435699462891 0.00033254068694077432
0.30886334180831909 0.14346472918987274 0.00016124633839353919
0.40747275948524475 0.1547425240278244 0.00027940110885538161
0.50612390041351318 0.18459475040435791 0.00032286459463648498
0.55865514278411865 0.19343544542789459 0.00032252250821329653
0.60843080282211304 0.20286212861537933 0.0012008387129753828
0.64675593376159668 0.2102227509021759 0.00063502299599349499
0.68026018142700195 0.21135659515857697 0.00046850313083268702
0.69762563705444336 0.21232591569423676 0.0040080840699374676
0.72382360696792603 0.22140541672706604 0.014242902398109436
0.73676425218582153 0.22267831861972809 0.018086904659867287
0.75019818544387817 0.22205229103565216 0.009958174079656601
0.78290277719497681 0.22782412171363831 0.014314082451164722
0.78815656900405884 0.24128890037536621 0.060894355177879333
0.78248447179794312 0.24387553334236145 0.080901086330413818
0.78601139783859253 0.24349936842918396 0.079845115542411804
0.79771828651428223 0.24389062821865082 0.072848677635192871
0.82834947109222412 0.25005730986595154 0.066819950938224792
0.84686976671218872 0.25121450424194336 0.072233475744724274
0.85328036546707153 0.25049856305122375 0.079148717224597931
0.85643577575683594 0.24487295746803284 0.093918092548847198
0.86131536960601807 0.23652109503746033 0.10844340175390244
0.8690224289894104 0.22722764313220978 0.12086596339941025
0.87965238094329834 0.21798369288444519 0.13091479241847992
0.89576840400695801 0.21243445575237274 0.13895189762115479
0.91272056102752686 0.21138463914394379 0.1406792551279068
0.92638468742370605 0.2100866287946701 0.13734133541584015
0.93897497653961182 0.20781098306179047 0.13255080580711365
0.95213538408279419 0.20484176278114319 0.12707754969596863
0.96670478582382202 0.20140767097473145 0.12108304351568222
0.98305016756057739 0.19766862690448761 0.11467745155096054
0.042524535208940506 0.28985011577606201 0
0.28438925743103027 0.26205199956893921 0
0.32198217511177063 0.19252452254295349 0.00029023169190622866
0.40033853054046631 0.19401238858699799 0.0004583672562148422
0.49488911032676697 0.2230105996131897 0.00098958739545196295
0.55773890018463135 0.24173589050769806 0.0024543858598917723
0.59218764305114746 0.23901757597923279 0.0046121114864945412
0.63260918855667114 0.24137215316295624 0.0031281656119972467
0.67170184850692749 0.24737094342708588 0.0032552266493439674
0.7044752836227417 0.25950312614440918 0.0073607689701020718
0.72666114568710327 0.26424223184585571 0.015532458201050758
0.74936932325363159 0.26496797800064087 0.017659984529018402
0.76327186822891235 0.27138280868530273 0.022344848141074181
0.7863236665725708 0.27030929923057556 0.016976116225123405
0.78778856992721558 0.26825991272926331 0.026366358622908592
0.79813295602798462 0.27304288744926453 0.041782770305871964
0.80609899759292603 0.27460825443267822 0.043599784374237061
0.81004881858825684 0.27381834387779236 0.045324411243200302
0.84350943565368652 0.28258368372917175 0.037951238453388214
0.86784923076629639 0.28480386734008789 0.03449220210313797
0.86754953861236572 0.27438294887542725 0.065627880394458771
0.86742508411407471 0.26285660266876221 0.091516479849815369
0.87063592672348022 0.25185683369636536 0.1111246645450592
0.87722718715667725 0.24176903069019318 0.12577046453952789
0.88747459650039673 0.23300091922283173 0.13665708899497986
0.9041706919670105 0.22881507873535156 0.14483210444450378
0.91901761293411255 0.22762778401374817 0.14514924585819244
0.93090921640396118 0.22626033425331116 0.1415226012468338
0.94234699010848999 0.22435487806797028 0.13662430644035339
0.95470970869064331 0.22200210392475128 0.13095618784427643
0.96868276596069336 0.21928936243057251 0.12465940415859222
0.98457014560699463 0.21629564464092255 0.11789240688085556
0.050967704504728317 0.32225805521011353 0.00048650134704075754
0.27882769703865051 0.32087504863739014 0
0.34295526146888733 0.2437005490064621 0.0013159812660887837
0.39995071291923523 0.22063148021697998 0.00013390963431447744
0.47397345304489136 0.24905328452587128 0.0019883208442479372
0.54459655284881592 0.2738116979598999 0.0048290947452187538
0.57689917087554932 0.26523873209953308 0.0081437584012746811
0.61161136627197266 0.26119270920753479 0.0088255414739251137
0.67030513286590576 0.28021642565727234 0.0033785817213356495
0.71453332901000977 0.29622605443000793 0.0036424817517399788
0.71913230419158936 0.29876434803009033 0.018794449046254158
0.72970980405807495 0.30256408452987671 0.037928968667984009
0.76156789064407349 0.31282046437263489 0.04491082951426506
0.7718435525894165 0.30601993203163147 0.051685746759176254
0.78122192621231079 0.30429580807685852 0.054898709058761597
0.80770987272262573 0.30614539980888367 0.034438040107488632
0.81046116352081299 0.3046322762966156 0.045414913445711136
0.81140142679214478 0.30468201637268066 0.062452595680952072
0.83590275049209595 0.30836057662963867 0.061648666858673096
0.86041027307510376 0.30696693062782288 0.060477033257484436
0.86658090353012085 0.29418832063674927 0.078418359160423279
0.86982119083404541 0.28004997968673706 0.10043828934431076
0.87481480836868286 0.26746827363967896 0.11833129078149796
0.88224411010742188 0.25665625929832458 0.13210543990135193
0.8936687707901001 0.24815791845321655 0.14256133139133453
0.9111066460609436 0.24456815421581268 0.14956392347812653
0.92404979467391968 0.24331396818161011 0.14881706237792969
0.93482857942581177 0.24218204617500305 0.14532867074012756
0.94557410478591919 0.24087011814117432 0.1405390202999115
0.9574245810508728 0.23929958045482635 0.134786456823349
0.97098952531814575 0.23742251098155975 0.1282728910446167
0.98654329776763916 0.23524898290634155 0.12121710181236267
0.042325049638748169 0.35351994633674622 0.00078676867997273803
0.2809196412563324 0.35857313871383667 0
0.36422643065452576 0.29720029234886169 0.00064634002046659589
0.40199249982833862 0.24833613634109497 0.0003742105036508292
0.463530033826828 0.2675093412399292 0.0016102164518088102
0.50890266895294189 0.28211459517478943 0.0058883274905383587
0.55438786745071411 0.28955337405204773 0.0099100219085812569
0.61567366123199463 0.29884165525436401 0.0069896690547466278
0.65703761577606201 0.30139350891113281 0.0062725869938731194
0.70446038246154785 0.3166193962097168 0.0013040835037827492
0.73235750198364258 0.33354374766349792 0.013631016947329044
0.72473126649856567 0.33287867903709412 0.041572779417037964
0.73890030384063721 0.33316320180892944 0.056569971144199371
0.77115947008132935 0.33640563488006592 0.06850384920835495
0.77829849720001221 0.33652135729789734 0.078402504324913025
0.78855538368225098 0.3375220000743866 0.077779762446880341
0.79553383588790894 0.33304485678672791 0.079111754894256592
0.80994677543640137 0.33603176474571228 0.11043421924114227
0.82120919227600098 0.33029788732528687 0.10947223752737045
0.83994805812835693 0.32603716850280762 0.10688360780477524
0.85258162021636963 0.31683641672134399 0.11109297722578049
0.86154454946517944 0.30366742610931396 0.11826350539922714
0.87093144655227661 0.29009842872619629 0.12774141132831573
0.88172298669815063 0.27749061584472656 0.13779410719871521
0.89732033014297485 0.2676604688167572 0.14758792519569397
0.91479974985122681 0.26322999596595764 0.15261898934841156
0.92706865072250366 0.26161286234855652 0.1521378755569458
0.93760132789611816 0.26064705848693848 0.14927166700363159
0.94818925857543945 0.25982481241226196 0.14473327994346619
0.95988261699676514 0.25889909267425537 0.13897235691547394
0.97328263521194458 0.25772210955619812 0.13230660557746887
0.98866713047027588 0.25625455379486084 0.12501990795135498
0.063581734895706177 0.38052818179130554 0.0019140505464747548
0.2910064160823822 0.39106926321983337 0.00072515173815190792
0.384560227394104 0.35254564881324768 0.00032852130243554711
0.41085362434387207 0.285146564245224 0.0011661156313493848
0.46624386310577393 0.28726914525032043 0.00077328592306002975
0.50866955518722534 0.30629011988639832 0.0053978236392140388
0.55573403835296631 0.31962200999259949 0.0058324798010289669
0.62975788116455078 0.33198076486587524 0.0018065308686345816
0.6574745774269104 0.33939278125762939 0.005956665612757206
0.69737350940704346 0.35694208741188049 0.010700828395783901
0.72729820013046265 0.36638766527175903 0.02215329185128212
0.71896153688430786 0.3597007691860199 0.044101230800151825
0.72154796123504639 0.35645869374275208 0.06392119824886322
0.75107491016387939 0.3597528338432312 0.069957122206687927
0.76430618762969971 0.3604835569858551 0.077757179737091064
0.7754366397857666 0.36078181862831116 0.0844578817486763
0.79118883609771729 0.36063915491104126 0.092826418578624725
0.80250608921051025 0.35841712355613708 0.11898200213909149
0.81204861402511597 0.35298135876655579 0.1376490592956543
0.82219964265823364 0.34613585472106934 0.14143688976764679
0.83714497089385986 0.33893689513206482 0.14350169897079468
0.84973448514938354 0.32803735136985779 0.14296612143516541
0.86213004589080811 0.3159385621547699 0.14216423034667969
0.87581926584243774 0.30390891432762146 0.14359834790229797
0.89549052715301514 0.29436102509498596 0.14958329498767853
0.91370147466659546 0.28925132751464844 0.15314421057701111
0.92678219079971313 0.28648445010185242 0.15367831289768219
0.93795901536941528 0.28492635488510132 0.15187570452690125
0.94901210069656372 0.28395447134971619 0.14802241325378418
0.96102279424667358 0.2831474244594574 0.1425984799861908
0.97460991144180298 0.28225523233413696 0.13601745665073395
0.99007588624954224 0.28117796778678894 0.1286553293466568
0.07911306619644165 0.40639805793762207 0.0031862007454037666
0.27190199494361877 0.41815918684005737 0.0006877420237287879
0.4084244966506958 0.40729331970214844 0
0.42302531003952026 0.32273545861244202 0
0.46504741907119751 0.31432396173477173 0.0022450231481343508
0.51765620708465576 0.33560565114021301 0.0018198795150965452
0.55687797069549561 0.34697291254997253 0.0025584085378795862
0.61636799573898315 0.35432550311088562 0.0029246550984680653
0.6623879075050354 0.37023994326591492 0.0058252336457371712
0.69337797164916992 0.38662415742874146 0.014494191855192184
0.70794254541397095 0.384672611951828 0.027388382703065872
0.71381533145904541 0.38187730312347412 0.043475396931171417
0.7190479040145874 0.3821270763874054 0.05711662769317627
0.75456273555755615 0.39071345329284668 0.07062540203332901
0.77661788463592529 0.39417123794555664 0.080407604575157166
0.78054255247116089 0.39032134413719177 0.091256096959114075
0.79573440551757812 0.38897699117660522 0.10753773152828217
0.80326831340789795 0.38324886560440063 0.12575484812259674
0.80666351318359375 0.37585970759391785 0.14524403214454651
0.81319057941436768 0.36901062726974487 0.15942159295082092
0.82783335447311401 0.36266416311264038 0.16606108844280243
0.8428153395652771 0.35313081741333008 0.16311977803707123
0.85751116275787354 0.34268537163734436 0.15799862146377563
0.87223660945892334 0.33249208331108093 0.15200845897197723
0.89042901992797852 0.3239237368106842 0.14925666153430939
0.90951794385910034 0.31817242503166199 0.15130017697811127
0.92393672466278076 0.31448838114738464 0.15242874622344971
0.93627685308456421 0.31221163272857666 0.15168623626232147
0.9482073187828064 0.31090253591537476 0.14883887767791748
0.96088624000549316 0.3100426197052002 0.14418712258338928
0.97496664524078369 0.30926957726478577 0.13811613619327545
0.99075847864151001 0.30843052268028259 0.13101418316364288
0.091157384216785431 0.43377768993377686 0.0055202567018568516
0.24979300796985626 0.44897910952568054 0
0.41152921319007874 0.4390590488910675 0
0.44218188524246216 0.37533867359161377 0.00035558026866056025
0.47714787721633911 0.34700080752372742 0.00022868483210913837
0.52935397624969482 0.36460795998573303 0.0002051179762929678
0.56935060024261475 0.38384288549423218 0.0016499778721481562
0.60667753219604492 0.39063793420791626 0.0053712255321443081
0.67139565944671631 0.4036540687084198 0.0052755237556993961
0.6947324275970459 0.40262448787689209 0.011423480696976185
0.71780496835708618 0.40287286043167114 0.016865894198417664
0.73006653785705566 0.40944841504096985 0.034392464905977249
0.72671210765838623 0.41075918078422546 0.051691014319658279
0.76040726900100708 0.42007637023925781 0.068643920123577118
0.78378313779830933 0.42363065481185913 0.087096922099590302
0.78022938966751099 0.41638404130935669 0.10952693969011307
0.78629660606384277 0.41140761971473694 0.12491565942764282
0.79696959257125854 0.40637567639350891 0.13657392561435699
0.80431753396987915 0.39983701705932617 0.14936807751655579
0.81137984991073608 0.39290162920951843 0.16093066334724426
0.82683926820755005 0.38713183999061584 0.16875883936882019
0.84339672327041626 0.38010424375534058 0.16625908017158508
0.8590511679649353 0.37169831991195679 0.16135521233081818
0.87394779920578003 0.36304992437362671 0.15623089671134949
0.88811171054840088 0.3546082079410553 0.15060131251811981
0.90419399738311768 0.34805247187614441 0.14835311472415924
0.91940665245056152 0.3439786434173584 0.14906406402587891
0.93324100971221924 0.34106582403182983 0.14902272820472717
0.94645750522613525 0.33919194340705872 0.14721710979938507
0.96007299423217773 0.33815458416938782 0.14371003210544586
0.9748806357383728 0.33749338984489441 0.13881026208400726
0.99121385812759399 0.33693718910217285 0.13329783082008362
0.12749986350536346 0.45833912491798401 0.0062955799512565136
0.24991896748542786 0.46791020035743713 0.00082733295857906342
0.39548090100288391 0.46947625279426575 0.0012099298182874918
0.45582228899002075 0.43141758441925049 7.1047361416276544e-005
0.48285600543022156 0.38467738032341003 3.73431106481803e-007
0.53333383798599243 0.38233667612075806 9.4965704192873091e-005
0.58221501111984253 0.41085731983184814 0.0013623127015307546
0.60989707708358765 0.42121970653533936 0.0047244303859770298
0.64376270771026611 0.42406302690505981 0.0080705722793936729
0.67891943454742432 0.42006528377532959 0.01252476591616869
0.71491694450378418 0.42942669987678528 0.0091898348182439804
0.73123842477798462 0.43894493579864502 0.032018747180700302
0.73102110624313354 0.44143235683441162 0.057144578546285629
0.74629974365234375 0.44154959917068481 0.067519053816795349
0.76701176166534424 0.44178822636604309 0.080307312309741974
0.77008920907974243 0.43828782439231873 0.11670652031898499
0.77473551034927368 0.43380814790725708 0.14272600412368774
0.78529548645019531 0.42886734008789062 0.15182636678218842
0.79563122987747192 0.42288857698440552 0.1565278023481369
0.8069535493850708 0.4165864884853363 0.16034168004989624
0.82709282636642456 0.41252484917640686 0.16629745066165924
0.84667021036148071 0.40806210041046143 0.16695527732372284
0.86207729578018188 0.40117806196212769 0.16404435038566589
0.87577313184738159 0.39285922050476074 0.15926706790924072
0.8903423547744751 0.38490411639213562 0.15482842922210693
0.90468478202819824 0.37914988398551941 0.15261662006378174
0.91751420497894287 0.37475261092185974 0.15023045241832733
0.93038922548294067 0.37117591500282288 0.14717891812324524
0.94422155618667603 0.36853215098381042 0.14428155124187469
0.9589385986328125 0.36686775088310242 0.14130532741546631
0.97469609975814819 0.36620664596557617 0.13861647248268127
0.99134629964828491 0.36590814590454102 0.1347186416387558
0.21952545642852783 0.48012593388557434 0.002737351693212986
0.26587411761283875 0.49254146218299866 0.00033708207774907351
0.39071932435035706 0.4914574921131134 1.3374011359701399e-005
0.46768251061439514 0.47556215524673462 0.0001162514163297601
0.49279758334159851 0.42205861210823059 0.00019135999900754541
0.53430885076522827 0.4082295298576355 0.00058734737103804946
0.58395171165466309 0.42512717843055725 0.00038440979551523924
0.63573729991912842 0.45314747095108032 0.0014039573725312948
0.64536410570144653 0.44814494252204895 0.00540190190076828
0.68423730134963989 0.44558811187744141 0.0086616082116961479
0.7227441668510437 0.46040362119674683 0.01263887993991375
0.74603301286697388 0.4748399555683136 0.035569094121456146
