projects/Assignment 1/res/luts/warm.cube
# Created by: G'MIC (https://gmic.eu)
TITLE "warm"
# LUT size
LUT_3D_SIZE 5
# Data domain
# LUT data points
DOMAIN_MIN 0.000000 0.000000 0.000000
DOMAIN_MAX 0.903226 0.903226 0.903226
0.049761462956666946 0.0083468696102499962 0.0084322858601808548
0.6242937445640564 0.010508829727768898 0.0019396498100832105
0.73096352815628052 0.15064536035060883 0.047625906765460968
0.82145035266876221 0.14003363251686096 0.15816977620124817
0.92670434713363647 0.12545773386955261 0.1111714169383049
0.042325049638748169 0.35351994633674622 0.00078676867997273803
0.61567366123199463 0.29884165525436401 0.0069896690547466278
0.77829849720001221 0.33652135729789734 0.078402504324913025
0.86154454946517944 0.30366742610931396 0.11826350539922714
0.94818925857543945 0.25982481241226196 0.14473327994346619
0.35902753472328186 0.51806294918060303 0.0068631609901785851
0.63659709692001343 0.48151659965515137 0.00036865996662527323
0.80303168296813965 0.51282018423080444 0.026144064962863922
0.83970344066619873 0.47621122002601624 0.15752267837524414
0.94598060846328735 0.45244321227073669 0.1516014039516449
0.40934267640113831 0.63844382762908936 0.014386753551661968
0.68243235349655151 0.67699211835861206 0.0057527711614966393
0.72614705562591553 0.64198672771453857 0.071600094437599182
0.83968043327331543 0.63872134685516357 0.17309299111366272
0.93581229448318481 0.63172394037246704 0.15348327159881592
0.31781619787216187 0.78924208879470825 0.019304096698760986
0.51371127367019653 0.76858657598495483 0.023049257695674896
0.64261442422866821 0.77815079689025879 0.071371018886566162
0.83632248640060425 0.76019823551177979 0.13518241047859192
0.94371491670608521 0.77394533157348633 0.15603913366794586
0.28767234086990356 0.16835026443004608 0.2218986451625824
0.50730437040328979 0.19105465710163116 0.27694547176361084
0.70711922645568848 0.19587428867816925 0.29332247376441956
0.84322237968444824 0.18091584742069244 0.28304001688957214
0.9438902735710144 0.15443199872970581 0.24678187072277069
0.35993108153343201 0.30914109945297241 0.26843366026878357
0.61724215745925903 0.35386928915977478 0.35050415992736816
0.83028846979141235 0.31996592879295349 0.31522881984710693
0.96897554397583008 0.26412159204483032 0.25292405486106873
0.97367757558822632 0.28953415155410767 0.27394968271255493
0.3642992377281189 0.47296223044395447 0.24406015872955322
0.60051488876342773 0.49463945627212524 0.27995818853378296
0.83127701282501221 0.49499580264091492 0.31316930055618286
0.97900146245956421 0.44300410151481628 0.2523256242275238
0.97679793834686279 0.45235010981559753 0.29999583959579468
0.37084528803825378 0.62512499094009399 0.20370751619338989
0.58207237720489502 0.62067717313766479 0.20749968290328979
0.7865593433380127 0.60347270965576172 0.26937687397003174
0.96650600433349609 0.59295022487640381 0.25320011377334595
0.97388428449630737 0.6082693338394165 0.30867102742195129
0.32053208351135254 0.7801976203918457 0.20317922532558441
0.51809585094451904 0.75591659545898438 0.20200768113136292
0.70976918935775757 0.73785144090652466 0.23227733373641968
0.92584609985351562 0.71075135469436646 0.2474694550037384
0.98524355888366699 0.72757524251937866 0.29946154356002808
0.26738005876541138 0.17858612537384033 0.41101467609405518
0.43339055776596069 0.19775350391864777 0.43876338005065918
0.64697510004043579 0.1763698011636734 0.41885319352149963
0.80533069372177124 0.16194769740104675 0.40524089336395264
0.93963605165481567 0.1617288738489151 0.41463354229927063
0.3640289306640625 0.32472798228263855 0.44279202818870544
0.54682999849319458 0.37594348192214966 0.47523075342178345
0.74293941259384155 0.32616254687309265 0.40806937217712402
0.88398802280426025 0.3055633008480072 0.38225111365318298
0.96435576677322388 0.3421008288860321 0.40946459770202637
0.38726744055747986 0.44559034705162048 0.45887124538421631
0.66171950101852417 0.455015629529953 0.46319761872291565
0.94193685054779053 0.37668722867965698 0.37716227769851685
0.97565358877182007 0.41891518235206604 0.40097042918205261
0.9943271279335022 0.46006512641906738 0.4402407705783844
0.32463005185127258 0.60405087471008301 0.42761921882629395
0.62985283136367798 0.56384223699569702 0.41038221120834351
0.88907688856124878 0.51792305707931519 0.36797085404396057
0.98853558301925659 0.55994969606399536 0.40521982312202454
0.99999994039535522 0.58905357122421265 0.45065167546272278
0.25598868727684021 0.78953796625137329 0.42186024785041809
0.51883071660995483 0.73771417140960693 0.40629038214683533
0.73035818338394165 0.7081749439239502 0.40397968888282776
0.90301567316055298 0.70380133390426636 0.41868475079536438
0.99660676717758179 0.70480090379714966 0.44858908653259277
0.22048713266849518 0.13812026381492615 0.59482210874557495
0.40079712867736816 0.15466931462287903 0.60346543788909912
0.58650535345077515 0.13486866652965546 0.59902727603912354
0.76769751310348511 0.12196174263954163 0.58930259943008423
0.92689859867095947 0.13061003386974335 0.60153019428253174
0.28757968544960022 0.30931523442268372 0.59290653467178345
0.49793323874473572 0.33693468570709229 0.57470911741256714
0.67147839069366455 0.32124820351600647 0.56129944324493408
0.81707727909088135 0.30830252170562744 0.55690979957580566
0.94227313995361328 0.32836583256721497 0.57387149333953857
0.34525245428085327 0.44254764914512634 0.59448152780532837
0.6215558648109436 0.43517622351646423 0.55320912599563599
0.85447496175765991 0.40541157126426697 0.49839740991592407
0.90113067626953125 0.45290523767471313 0.5265311598777771
0.9654725193977356 0.48761382699012756 0.5597342848777771
0.31474849581718445 0.59876137971878052 0.60103273391723633
0.61675524711608887 0.54734152555465698 0.55392211675643921
0.89104729890823364 0.4975757896900177 0.50083410739898682
0.98946124315261841 0.53594279289245605 0.52718007564544678
0.99542415142059326 0.58238822221755981 0.5686296820640564
0.24856355786323547 0.79252868890762329 0.61338770389556885
0.53129833936691284 0.73633080720901489 0.5787208080291748
0.79676061868667603 0.6782529354095459 0.54379552602767944
0.97631007432937622 0.65565907955169678 0.53904062509536743
0.99495869874954224 0.69430160522460938 0.5761144757270813
0.15261076390743256 0.092310503125190735 0.80609583854675293
0.35881182551383972 0.10668317973613739 0.79478955268859863
0.557231605052948 0.1000838428735733 0.79264414310455322
0.73646897077560425 0.088833697140216827 0.80615502595901489
0.91699129343032837 0.095474869012832642 0.81318151950836182
0.20061147212982178 0.28008311986923218 0.78392237424850464
0.41990587115287781 0.29290392994880676 0.75323796272277832
0.6186099648475647 0.29008039832115173 0.74088329076766968
0.77344882488250732 0.29255929589271545 0.75929474830627441
0.92853236198425293 0.30734458565711975 0.77249568700790405
0.2529008686542511 0.44257816672325134 0.77548974752426147
0.49866572022438049 0.43410205841064453 0.72310435771942139
0.70695525407791138 0.43036770820617676 0.68131011724472046
0.82899343967437744 0.46529737114906311 0.70528721809387207
0.94383072853088379 0.484092116355896 0.72892874479293823
0.25471523404121399 0.6127479076385498 0.7863878607749939
0.52754294872283936 0.57889938354492188 0.72817951440811157
0.76331228017807007 0.55953431129455566 0.66911554336547852
0.90044707059860229 0.57993179559707642 0.66271871328353882
0.96632575988769531 0.61892992258071899 0.6943092942237854
0.20361131429672241 0.81217539310455322 0.81139028072357178
0.47116383910179138 0.76946336030960083 0.76466166973114014
0.7036784291267395 0.73781156539916992 0.71949857473373413
0.89081889390945435 0.70785725116729736 0.68495941162109375
0.99247074127197266 0.68497055768966675 0.67518353462219238
